!!!!SEGMENT: pl-cz--iii-692--011_volckmer-augustin--miserere-gloria-patri.krn
!!!cenid: 17xx:1158
!!!COM: Volckmer, Augustin
!!!COM-rismid: pe30020656
!!!CDT: 1755-~1820
!!!CNT:
!!!OPR: Miserere
!!!OTL: Gloria Patri
!!!OMV: 011
!!!PDT:
!!!AGN: Sacred
!!!SMS-siglum: PL-CZ
!!!SMS-shelfmark: III-692
!!!SMS-shelfwork: 001-011 M
!!!SMS-variant:
!!!SMS-altvar:
!!!NIFC-rismid: 300001392
!!!URL-scan: http://repozytorium.nifc.pl/skany/pl-cz-nut--iii-692
!!!ONB-nifc: UWAGA: części Miserere: 1. Miserere, 2. Recitativo – Amplius lava me, 3. Aria – Quoniam, 4. Aria – Asperges me, 5. Averte faciem tuam, 6. Cor mundum, 7. Duetto – Docebo iniquos, 8. Arietta – Domine labia mea, 9. Recitativo – Quoniam si voluisses, 10. Aria – Sacrificium Deo, 11. Gloria Patri, 12. Sicut erat
!!!key: E-
**kern	**dynam	**kern	**dynam	**kern	**dynam	**kern	**dynam	**kern	**text	**dynam	**kern	**text	**dynam	**kern	**text	**dynam	**kern	**text	**dynam	**kern	**dynam	**kern	**dynam	**kern	**dynam	**kern	**dynam
*	*	*group4	*	*group4	*	*group4	*	*group3	*	*	*group3	*	*	*group3	*	*	*group3	*	*	*group2	*	*group2	*	*group1	*	*group1	*
*part12	*part12	*part11	*part11	*part10	*part10	*part9	*part9	*part8	*part8	*part8	*part7	*part7	*part7	*part6	*part6	*part6	*part5	*part5	*part5	*part4	*part4	*part3	*part3	*part2	*part2	*part1	*part1
*staff12	*	*staff11	*	*staff10	*	*staff9	*	*staff8	*staff8	*	*staff7	*staff7	*	*staff6	*staff6	*	*staff5	*staff5	*staff5	*staff4	*	*staff3	*	*staff2	*	*staff1	*
*I"Organo.	*	*I"Viola obl=	*	*I"Violino Secondo.	*	*I"Violino Primo	*	*I"Basſo	*	*	*I"Tenore	*	*	*I"Alto.	*	*	*I"Canto	*	*	*I"Cornu Secondo in Dis	*	*I"Cornu Primo. in Dis	*	*I"Oboa Seconda	*	*I"Oboa Prima.	*
*I'org	*	*I'vla obl	*	*I'vl 2	*	*I'vl 1	*	*I'B	*	*	*I'T	*	*	*I'A	*	*	*I'S	*	*	*I'cor 2	*	*I'cor 1	*	*I'ob 2	*	*I'ob 1	*
*Iorgan	*	*Iviola	*	*Ivioln	*	*Ivioln	*	*Ibass	*	*	*Itenor	*	*	*Ialto	*	*	*Isoprn	*	*	*Icor	*	*Icor	*	*Ioboe	*	*Ioboe	*
*ICklav	*	*ICstr	*	*ICstr	*	*ICstr	*	*ICvox	*	*	*ICvox	*	*	*ICvox	*	*	*ICvox	*	*	*ICbras	*	*ICbras	*	*ICww	*	*ICww	*
*clefF4	*	*clefC3	*	*clefG2	*	*clefG2	*	*clefF4	*	*	*clefC4	*	*	*clefC3	*	*	*clefC1	*	*	*clefG2	*	*clefG2	*	*clefG2	*	*clefG2	*
*	*	*	*	*	*	*	*	*	*	*	*	*	*	*	*	*	*	*	*	*ITrd5c9	*	*ITrd5c9	*	*	*	*	*
*k[e-b-a-]	*	*k[b-e-a-]	*	*k[b-e-a-]	*	*k[b-e-a-]	*	*k[b-e-a-]	*	*	*k[b-a-e-]	*	*	*k[e-b-a-]	*	*	*k[e-b-a-]	*	*	*k[b-e-a-]	*	*k[b-e-a-]	*	*k[b-a-e-]	*	*k[b-a-e-]	*
*E-:	*	*E-:	*	*E-:	*	*E-:	*	*E-:	*	*	*E-:	*	*	*E-:	*	*	*E-:	*	*	*E-:	*	*E-:	*	*E-:	*	*E-:	*
*M3/2	*	*M3/2	*	*M3/2	*	*M3/2	*	*M3/2	*	*	*M3/2	*	*	*M3/2	*	*	*M3/2	*	*	*M3/2	*	*M3/2	*	*M3/2	*	*M3/2	*
=1	=1	=1	=1	=1	=1	=1	=1	=1	=1	=1	=1	=1	=1	=1	=1	=1	=1	=1	=1	=1	=1	=1	=1	=1	=1	=1	=1
*2\right	*	*	*	*	*	*2\right	*	*	*	*	*	*	*	*2\right	*	*	*2\right	*	*	*	*	*	*	*	*	*	*
!	!	!	!	!	!	!	!	!LO:TX:a:t=1	!	!	!	!	!	!	!	!	!	!	!	!LO:TX:a:i:t=in Dis	!	!LO:TX:a:i:t=in Dis	!	!	!	!LO:TX:t=P:problem:w taktach nr 1-4 niezgodność pionów harmonicznych	!
!LO:TX:a:Bi:t=Lento Molto	!	!LO:TX:a:Bi:t=Lento Molto	!LO:DY:a	!LO:TX:a:Bi:t=Lento Molto	!	!LO:TX:a:Bi:t=Lento Molto	!	!LO:TX:a:Bi:t=Lento Molto	!	!	!LO:TX:a:Bi:t=Lento Molto	!	!	!LO:TX:a:Bi:t=Lento Molto	!	!	!LO:TX:a:Bi:t=Adagio	!	!	!LO:TX:a:Bi:t=Lento Molto	!	!LO:TX:a:Bi:t=Lento Molto	!	!LO:TX:a:Bi:t=Lento Molto	!LO:DY:t=piano	!LO:TX:a:i:t=Lentto Molto	!
2E-\	.	1B-	p	2g/	.	2b-\	.	1.r	.	.	1.r	.	.	2g\	Glo-	.	2b-\	Glo-	.	1E-	.	1B-	.	1.r	p	1.r	.
2r	.	.	.	2a-/	.	2cc\	.	.	.	.	.	.	.	2a-\	-ri-	.	2cc\	-ri-	.	.	.	.	.	.	.	.	.
2BB-/	.	2B-/	.	2f/	.	2a-\	.	.	.	.	.	.	.	2f\	-a	.	2a-\	-a	.	2E-/	.	2B-/	.	.	.	.	.
=2	=2	=2	=2	=2	=2	=2	=2	=2	=2	=2	=2	=2	=2	=2	=2	=2	=2	=2	=2	=2	=2	=2	=2	=2	=2	=2	=2
*	*	*	*	*	*	*	*	*2\right	*	*	*2\right	*	*	*	*	*	*	*	*	*	*	*	*	*2\right	*	*2\right	*
2BB-/	.	2B-/	.	2f/	.	2a-\	.	2G\	glo-	.	2B-\	Glo-	.	2f\	Pa-	.	2a-\	Pa-	.	2E-/	.	2B-/	.	2gg\	.	2bb-\	.
2E-\	.	2B-/	.	2e-/	.	2g\	.	2A-\	-ri-	.	2c\	-ri-	.	2e-\	-tri	.	2g\	-tri	.	2E-/	.	2B-/	.	2aa-\	.	2ccc\	.
*	*	*2\right	*	*	*	*	*	*	*	*	*	*	*	*	*	*	*	*	*	*	*	*	*	*	*	*	*
2r	.	2b-\	.	2r	.	2r	.	2F\	-a	.	2A-\	-a	.	2r	.	.	2r	.	.	2E-/	.	2B-/	.	2ff\	.	2aa-\	.
=3	=3	=3	=3	=3	=3	=3	=3	=3	=3	=3	=3	=3	=3	=3	=3	=3	=3	=3	=3	=3	=3	=3	=3	=3	=3	=3	=3
*	*	*	*	*	*	*	*	*	*	*	*	*	*	*	*	*	*	*ij	*	*	*	*	*	*	*	*	*
2E-\	.	1b-	.	2g/	.	2b-\	.	2F\	Pa-	.	2A-\	Pa-	.	2g\	glo-	.	2b-\	Glo-	.	1E-	.	1B-	.	2ff\	.	2aa-\	.
2r	.	.	.	2a-/	.	2cc\	.	2E-\	-tri	.	2G\	-tri	.	2a-\	-ri-	.	2cc\	-ri-	.	.	.	.	.	2ee-\	.	2gg\	.
2BB-/	.	2B-/	.	2f/	.	2a-/	.	2r	.	.	2r	.	.	2f\	-a	.	2a-\	-a	.	2E-/	.	2B-/	.	2r	.	2r	.
=4	=4	=4	=4	=4	=4	=4	=4	=4	=4	=4	=4	=4	=4	=4	=4	=4	=4	=4	=4	=4	=4	=4	=4	=4	=4	=4	=4
2BB-/	.	2B-/	.	2f/	.	2a-/	.	2G\	Pa-	.	2B-\	glo-	.	2f\	Pa-	.	2a-\	Pa-	.	2E-/	.	2B-/	.	2gg\	.	2bb-\	.
2E-\	.	2B-/	.	2e-/	.	2g/	.	2A-\	.	.	2c\	-ri-	.	2e-\	-tri	.	2g\	-tri	.	2E-/	.	2B-/	.	2aa-\	.	2ccc\	.
*	*	*	*	*	*	*	*	*	*	*	*	*	*	*	*	*	*	*Xij	*	*2\right	*	*2\right	*	*	*	*	*
2r	.	2b-\	.	2r	.	2r	.	2F\	-tri	.	2A-\	-a	.	2r	.	.	2r	.	.	2e-\	.	2b-\	.	2ff\	.	2aa-\	.
!	!	!	!	!	!	!	!	!	!	!	!	!	!	!LO:LB:g=original	!	!	!	!	!	!	!	!	!	!	!	!	!
=5	=5	=5	=5	=5	=5	=5	=5	=5	=5	=5	=5	=5	=5	=5	=5	=5	=5	=5	=5	=5	=5	=5	=5	=5	=5	=5	=5
*	*	*	*	*	*	*	*	*	*	*	*	*ij	*	*	*	*	*	*	*	*	*	*	*	*	*	*	*
2E-\	.	2g\	.	4.g/	.	4.ee-\	.	2E-\	glo-	.	2G\	glo-	.	2g\	glo-	.	2ee-\	Glo-	.	2f\	.	2b-\	.	2ee-\	.	2gg\	.
.	.	.	.	8g/	.	8ee-\	.	.	.	.	.	.	.	.	.	.	.	.	.	.	.	.	.	.	.	.	.
2C/	.	2e-\	.	4.an/	.	4.cc\	.	2C\	-ri-	.	2e-\	-ri-	.	2an\	-ri-	.	2cc\	-ri-	.	2f\	.	2cc\	.	2ee-\	.	2aan\	.
.	.	.	.	8a/	.	8cc\	.	.	.	.	.	.	.	.	.	.	.	.	.	.	.	.	.	.	.	.	.
!	!	!	!	!	!	!	!	!LO:LB:g=original	!	!	!	!	!	!	!	!	!	!	!	!	!	!	!	!	!	!	!
2D\	.	2f\	.	4.b-/	.	4.dd\	.	2D\	-a	.	2f\	-a	.	2b-\	-a	.	2dd\	-a	.	2f\	.	2b-\	.	2dd\	.	2bb-\	.
.	.	.	.	8b-/	.	8dd\	.	.	.	.	.	.	.	.	.	.	.	.	.	.	.	.	.	.	.	.	.
=6	=6	=6	=6	=6	=6	=6	=6	=6	=6	=6	=6	=6	=6	=6	=6	=6	=6	=6	=6	=6	=6	=6	=6	=6	=6	=6	=6
*	*	*	*	*	*	*	*	*	*	*	*	*	*	*	*ij	*	*	*ij	*	*	*	*	*	*	*	*	*
2E-\	.	2g\	.	8r	.	8r	.	2E-\	glo-	.	2g\	glo-	.	2e-\	glo-	.	2cc\	Glo-	.	2e-\	.	2g\	.	2ee-\	.	2ccc\	.
.	.	.	.	8e-'/L	.	(8cc'\L	.	.	.	.	.	.	.	.	.	.	.	.	.	.	.	.	.	.	.	.	.
.	.	.	.	8e-'/	.	8cc'\	.	.	.	.	.	.	.	.	.	.	.	.	.	.	.	.	.	.	.	.	.
.	.	.	.	8e-'/J	.	8cc'\J)	.	.	.	.	.	.	.	.	.	.	.	.	.	.	.	.	.	.	.	.	.
2F\	.	2f\	.	8r	.	8r	.	2F\	-ri-	.	2f\	-ri-	.	2d\	-ri-	.	2b-\	-ri-	.	2f\	.	2f\	.	2dd\	.	2bb-\	.
.	.	.	.	8d'/L	.	8b-'\L	.	.	.	.	.	.	.	.	.	.	.	.	.	.	.	.	.	.	.	.	.
.	.	.	.	8d'/	.	8b-'\	.	.	.	.	.	.	.	.	.	.	.	.	.	.	.	.	.	.	.	.	.
.	.	.	.	8d'/J	.	8b-'\J	.	.	.	.	.	.	.	.	.	.	.	.	.	.	.	.	.	.	.	.	.
2FF/	.	2f\	.	8r	.	8r	.	2FF/	-a	.	2f\	-a	.	2c\	-a	.	2an\	-a	.	2f\	.	2f\	.	2cc\	.	2aan\	.
*	*	*	*	*	*	*	*	*	*	*	*	*Xij	*	*	*Xij	*	*	*Xij	*	*	*	*	*	*	*	*	*
!	!	!	!	!	!	!LO:SIC:v:s=8an'/L	!	!	!	!	!	!	!	!	!	!	!	!	!	!	!	!	!	!	!	!	!
.	.	.	.	8c'/L	.	8a-'/L	.	.	.	.	.	.	.	.	.	.	.	.	.	.	.	.	.	.	.	.	.
!	!	!	!	!	!	!LO:SIC:v:s=8a'/	!	!	!	!	!	!	!	!	!	!	!	!	!	!	!	!	!	!	!	!	!
.	.	.	.	8c'/	.	8a-'/	.	.	.	.	.	.	.	.	.	.	.	.	.	.	.	.	.	.	.	.	.
!	!	!	!	!	!	!LO:SIC:v:s=8a'/J	!	!	!	!	!	!	!	!	!	!	!	!	!	!	!	!	!	!	!	!	!
.	.	.	.	8c'/J	.	8a-'/J	.	.	.	.	.	.	.	.	.	.	.	.	.	.	.	.	.	.	.	.	.
!	!	!	!	!	!	!	!	!	!	!	!LO:LB:g=original	!	!	!	!	!	!	!	!	!	!	!	!	!	!	!	!
=7	=7	=7	=7	=7	=7	=7	=7	=7	=7	=7	=7	=7	=7	=7	=7	=7	=7	=7	=7	=7	=7	=7	=7	=7	=7	=7	=7
!	!	!	!	!	!	!LO:SIC:v:s=(2an/	!	!LO:TX:a:t=''	!	!	!LO:TX:a:t=''	!	!	!	!	!	!LO:SIC:v:s=4an\	!	!	!	!	!	!	!	!	!LO:SIC:v:s=2aan\n	!
2FF/	.	2f\	.	2c/	.	(2a-/	.	2FF/	fili-	.	2f\	fili-	.	4c\	fi-	.	4a-\	fi-	.	2f\	.	2f\	.	2cc\	.	2aa-\	.
!	!	!	!	!	!	!	!	!	!	!	!	!	!	!	!	!	!LO:SIC:v:s=4a\	!	!	!	!	!	!	!	!	!	!
.	.	.	.	.	.	.	.	.	.	.	.	.	.	4c\	-li-	.	4a-\	-li-	.	.	.	.	.	.	.	.	.
2BB-/	.	2f\	.	2d/	.	2b-/)	.	2BB-/	-o	.	2f\	-o	.	2d\	-o	.	2b-\	-o	.	2B-/	.	2f\	.	2dd\	.	2bb-\	.
2B-\	.	2r	.	2r	.	2r	.	2r	.	.	2r	.	.	2r	.	.	2r	.	.	2r	.	2r	.	2r	.	2r	.
!	!	!	!	!	!	!	!	!	!	!	!	!	!	!	!	!	!LO:LB:g=original	!	!	!LO:LB:g=original	!	!LO:LB:g=original	!	!	!	!	!
=8	=8	=8	=8	=8	=8	=8	=8	=8	=8	=8	=8	=8	=8	=8	=8	=8	=8	=8	=8	=8	=8	=8	=8	=8	=8	=8	=8
!	!	!	!	!	!LO:DY:a:t=p&colon;	!	!LO:DY:t=p&colon;	!LO:TX:a:t=2	!	!	!LO:TX:a:t=2	!	!	!	!	!	!	!	!	!	!	!	!	!LO:TX:a:t=2	!	!LO:TX:a:t=2	!
2E-\	.	2B-/	p	2g/	p	2ee-\	p	0.r	.	.	0.r	.	.	2g\	Et	.	2ee-\	et	.	2E-/	.	2B-/	.	0.r	.	0.r	.
2r	.	2B-/	.	(4g/	.	(4b-\	.	.	.	.	.	.	.	(4g\	.	.	(4b-\	Spi-	.	2r	.	2r	.	.	.	.	.
.	.	.	.	4a-/	.	4cc\	.	.	.	.	.	.	.	4a-\)	.	.	4cc\)	.	.	.	.	.	.	.	.	.	.
2E-\	.	2B-/	.	4b-/	.	4dd-X\	.	.	.	.	.	.	.	(4b-\	Spi-	.	(4dd-X\	.	.	2r	.	2r	.	.	.	.	.
.	.	.	.	4cc/)	.	4ee-\)	.	.	.	.	.	.	.	4cc\)	.	.	4ee-\)	.	.	.	.	.	.	.	.	.	.
!	!	!	!	!	!	!LO:LB:g=original	!	!	!	!	!	!	!	!	!	!	!	!	!	!	!	!	!	!	!	!	!
=9	=9	=9	=9	=9	=9	=9	=9	=9	=9	=9	=9	=9	=9	=9	=9	=9	=9	=9	=9	=9	=9	=9	=9	=9	=9	=9	=9
!	!	!LO:SIC:v:s=2A-/	!	!	!	!	!	!	!	!	!	!	!	!	!	!	!	!	!	!	!	!LO:TX:a:t=1	!	!	!	!	!
2A-\	.	2B-/	.	4b-/	.	4dd-X\	.	.	.	.	.	.	.	4b-\	-ri-	.	4dd-X\	-ri-	.	1.r	.	1.r	.	.	.	.	.
.	.	.	.	4a-/	.	4cc\	.	.	.	.	.	.	.	4a-\	-tu-	.	4cc\	-tu-	.	.	.	.	.	.	.	.	.
2E-\	.	2e-\	.	2a-/	.	2cc\	.	.	.	.	.	.	.	2a-\	-i	.	2cc\	-i	.	.	.	.	.	.	.	.	.
!LO:LB:g=original	!	!	!	!	!	!	!	!	!	!	!	!	!	!	!	!	!	!	!	!	!	!	!	!	!	!	!
2AA-/	.	2r	.	2r	.	2r	.	.	.	.	.	.	.	2r	.	.	2r	.	.	.	.	.	.	.	.	.	.
!	!	!	!	!LO:LB:g=original	!	!	!	!	!	!	!	!	!	!	!	!	!	!	!	!	!	!	!	!	!	!	!
=10	=10	=10	=10	=10	=10	=10	=10	=10	=10	=10	=10	=10	=10	=10	=10	=10	=10	=10	=10	=10	=10	=10	=10	=10	=10	=10	=10
!	!	!	!	!	!LO:DY:a	!	!LO:DY:a:t=f&colon;	!	!	!	!	!	!	!	!	!	!	!	!	!	!	!	!	!	!	!	!
2D-X\	.	2f\	f	4r	f	4r	f	2D-X\	San-	.	(2f\	Sanc-	.	(2d-X\	San-	.	2b-\	San-	.	2f\	.	2f\	.	2dd-X\	.	2bb-\	.
.	.	.	.	8e-/L	.	(8cc\L	.	.	.	.	.	.	.	.	.	.	.	.	.	.	.	.	.	.	.	.	.
.	.	.	.	8d-X/J	.	8b-\J)	.	.	.	.	.	.	.	.	.	.	.	.	.	.	.	.	.	.	.	.	.
2E-\	.	2e-\	.	4r	.	4r	.	2E-\	.	.	2e-\	.	.	2c\	.	.	(2a-\	.	.	2E-/	.	2e-\	.	2cc\	.	2aa-\	.
.	.	.	.	(8d-/L	.	(8b-\L	.	.	.	.	.	.	.	.	.	.	.	.	.	.	.	.	.	.	.	.	.
.	.	.	.	8c/J)	.	8a-\J)	.	.	.	.	.	.	.	.	.	.	.	.	.	.	.	.	.	.	.	.	.
2EE-/	.	2e-\	.	4r	.	4r	.	2EE-/	.	.	2e-\)	.	.	2B-\)	.	.	2g\)	.	.	2E-/	.	2e-\	.	2b-\	.	2gg\	.
.	.	.	.	(8c/L	.	(8a-\L	.	.	.	.	.	.	.	.	.	.	.	.	.	.	.	.	.	.	.	.	.
.	.	.	.	8B-/J)	.	8g\J)	.	.	.	.	.	.	.	.	.	.	.	.	.	.	.	.	.	.	.	.	.
!	!	!LO:LB:g=original	!	!	!	!	!	!	!	!	!	!	!	!	!	!	!	!	!	!	!	!	!	!	!	!	!
=11	=11	=11	=11	=11	=11	=11	=11	=11	=11	=11	=11	=11	=11	=11	=11	=11	=11	=11	=11	=11	=11	=11	=11	=11	=11	=11	=11
2EE-/	.	2e-\	.	2B-/	.	2g/	.	2E-\	-cto	.	[2e-\	-to	.	2B-/	-cto	.	(2g\	-cto	.	2E-/	.	2e-\	.	2b-\	.	2gg\	.
2AA-/	.	2e-\	.	2c/	.	2a-/	.	2A-\	.	.	2e-\]	.	.	2c/	.	.	2a-\)	.	.	2E-/	.	2a-\	.	2cc\	.	2aa-\	.
2A-\	.	2r	.	2r	.	2r	.	2r	.	.	2r	.	.	2r	.	.	2r	.	.	2r	.	2r	.	2r	.	2r	.
!	!	!	!	!	!	!	!	!	!	!	!	!	!	!	!	!	!	!	!	!	!	!	!	!	!	!LO:LB:g=original	!
=12	=12	=12	=12	=12	=12	=12	=12	=12	=12	=12	=12	=12	=12	=12	=12	=12	=12	=12	=12	=12	=12	=12	=12	=12	=12	=12	=12
!	!	!	!	!	!LO:DY:a:t=p&colon;	!	!LO:DY:t=p&colon;	!	!	!	!	!	!	!	!	!	!	!	!	!	!	!	!	!LO:TX:a:t=2	!	!LO:TX:a:t=2	!
2F\	.	1c	p	2an/	p	2ff\	p	2An\	Et	.	2f\	et	.	0.r	.	.	0.r	.	.	2f\	.	2f\	.	0.r	.	0.r	.
2r	.	.	.	(4a/	.	4cc\	.	(4A\	Spi-	.	(4c\	Spi-	.	.	.	.	.	.	.	2r	.	2r	.	.	.	.	.
.	.	.	.	4b-/	.	(4ddn\	.	4B-\)	.	.	4dn\	.	.	.	.	.	.	.	.	.	.	.	.	.	.	.	.
2F\	.	2c\	.	4cc/	.	4ee-\	.	(4c\	-ri-	.	4e-\	.	.	.	.	.	.	.	.	2r	.	2r	.	.	.	.	.
.	.	.	.	4dd/)	.	4ff\)	.	4d\)	.	.	4f\)	.	.	.	.	.	.	.	.	.	.	.	.	.	.	.	.
=13	=13	=13	=13	=13	=13	=13	=13	=13	=13	=13	=13	=13	=13	=13	=13	=13	=13	=13	=13	=13	=13	=13	=13	=13	=13	=13	=13
!	!	!LO:SIC:v:s=2B-/	!	!	!	!	!	!	!	!	!	!	!	!	!	!	!	!	!	!	!	!LO:TX:a:t=1	!	!	!	!	!
2B-\	.	2c\	.	4cc\	.	4ee-\	.	(4c\	-tu-	.	4e-\	-ri-	.	.	.	.	.	.	.	1.r	.	1.r	.	.	.	.	.
.	.	.	.	4b-\	.	4ddn\	.	4B-\)	.	.	4dn\	-tu-	.	.	.	.	.	.	.	.	.	.	.	.	.	.	.
2F\	.	2f\	.	2b-\	.	2dd\	.	2B-\	-i	.	2d\	-i	.	.	.	.	.	.	.	.	.	.	.	.	.	.	.
2BB-/	.	2r	.	2r	.	2r	.	2r	.	.	2r	.	.	.	.	.	.	.	.	.	.	.	.	.	.	.	.
!	!	!	!	!	!	!	!	!	!	!	!	!	!	!	!	!	!	!	!	!	!	!	!	!LO:LB:g=original	!	!	!
=14	=14	=14	=14	=14	=14	=14	=14	=14	=14	=14	=14	=14	=14	=14	=14	=14	=14	=14	=14	=14	=14	=14	=14	=14	=14	=14	=14
!	!	!	!	!	!LO:DY:a:t=f&colon;	!	!	!	!	!	!	!	!	!	!	!	!	!	!	!	!	!	!	!	!	!	!
2E-\	.	2g\	f	4r	f	4r	.	2E-\	San-	.	(2g\	San-	.	(2e-\	San-	.	2cc\	San-	.	2g\	.	2g\	.	2ee-\	.	2ccc\	.
.	.	.	.	(8f/L	.	(8dd\L	.	.	.	.	.	.	.	.	.	.	.	.	.	.	.	.	.	.	.	.	.
.	.	.	.	8e-/J)	.	8cc\J)	.	.	.	.	.	.	.	.	.	.	.	.	.	.	.	.	.	.	.	.	.
2F\	.	2f\	.	4r	.	4r	.	2F\	.	.	2f\	.	.	2d\)	.	.	(2b-\	.	.	2f\	.	2f\	.	2dd\	.	2bb-\	.
.	.	.	.	8e-/L	.	(8cc\L	.	.	.	.	.	.	.	.	.	.	.	.	.	.	.	.	.	.	.	.	.
.	.	.	.	8d/J	.	8b-\J)	.	.	.	.	.	.	.	.	.	.	.	.	.	.	.	.	.	.	.	.	.
!	!	!	!	!	!	!	!	!	!	!	!	!	!	!LO:LB:g=original	!	!	!	!	!	!	!	!	!	!	!	!	!
2FF/	.	2f\	.	4r	.	4r	.	2FF/	.	.	2f\)	.	.	2c\	.	.	2an\)	.	.	2f\	.	2f\	.	2cc\	.	2aan\	.
.	.	.	.	8d/L	.	(8b-\L	.	.	.	.	.	.	.	.	.	.	.	.	.	.	.	.	.	.	.	.	.
.	.	.	.	8c/J	.	8an\J)	.	.	.	.	.	.	.	.	.	.	.	.	.	.	.	.	.	.	.	.	.
=15	=15	=15	=15	=15	=15	=15	=15	=15	=15	=15	=15	=15	=15	=15	=15	=15	=15	=15	=15	=15	=15	=15	=15	=15	=15	=15	=15
!	!	!	!	!	!	!LO:SIC:v:s=2an\	!	!	!	!	!	!	!	!	!	!	!LO:SIC:v:s=(2an\	!	!	!	!	!	!	!	!	!LO:SIC:v:s=2aan\	!
2FF/	.	2f\	.	2c/	.	2a-\	.	2FF/	-cto	.	1f	-cto	.	(2c\	-cto	.	(2a-\	-cto	.	2f\	.	2f\	.	2cc\	.	2aa-\	.
2BB-/	.	2f\	.	2d/	.	2b-\	.	2BB-/	.	.	.	.	.	2d\)	.	.	2b-\)	.	.	2B-/	.	2f\	.	2dd\	.	2bb-\	.
2B-\	.	2r	.	2r	.	2r	.	2r	.	.	2r	.	.	2r	.	.	2r	.	.	2r	.	2r	.	2r	.	2r	.
!	!	!	!	!	!	!	!	!LO:LB:g=original	!	!	!	!	!	!	!	!	!	!	!	!	!	!	!	!	!	!	!
=16	=16	=16	=16	=16	=16	=16	=16	=16	=16	=16	=16	=16	=16	=16	=16	=16	=16	=16	=16	=16	=16	=16	=16	=16	=16	=16	=16
2BB-/	.	(8d\L	.	(8A-X/L	.	(8a-/L	.	1.BB-	Et	.	1.A-	et	.	1.f	Et	.	1.dd	et	.	2B-/	.	2f\	.	1.ff	.	1.aa-X	.
.	.	8f\)	.	8B-/	.	8f/)	.	.	.	.	.	.	.	.	.	.	.	.	.	.	.	.	.	.	.	.	.
.	.	(8d\	.	8A-/	.	(8a-/	.	.	.	.	.	.	.	.	.	.	.	.	.	.	.	.	.	.	.	.	.
.	.	8f\)	.	8B-/J)	.	8f/J)	.	.	.	.	.	.	.	.	.	.	.	.	.	.	.	.	.	.	.	.	.
2BB-/	.	(8d\	.	(8A-/L	.	8r	.	.	.	.	.	.	.	.	.	.	.	.	.	2B-/	.	2f\	.	.	.	.	.
.	.	8f\	.	8B-/	.	8ff\L|	.	.	.	.	.	.	.	.	.	.	.	.	.	.	.	.	.	.	.	.	.
.	.	8d\	.	8A-/	.	(8ff\	.	.	.	.	.	.	.	.	.	.	.	.	.	.	.	.	.	.	.	.	.
.	.	8f\J)	.	8B-/J)	.	8dd\J)	.	.	.	.	.	.	.	.	.	.	.	.	.	.	.	.	.	.	.	.	.
!	!	!	!	!	!	!LO:LB:g=original	!	!	!	!	!	!	!	!	!	!	!	!	!	!	!	!	!	!	!	!	!
4r	.	(8d\L	.	(8A-/L	.	(8dd\L	.	.	.	.	.	.	.	.	.	.	.	.	.	4B-/	.	4f\	.	.	.	.	.
.	.	8f\	.	8B-/	.	8b-\)	.	.	.	.	.	.	.	.	.	.	.	.	.	.	.	.	.	.	.	.	.
4BB-/	.	8d\	.	8A-/	.	(8b-\	.	.	.	.	.	.	.	.	.	.	.	.	.	4B-/	.	4f\	.	.	.	.	.
.	.	8f\J)	.	8B-/J)	.	8g\J)	.	.	.	.	.	.	.	.	.	.	.	.	.	.	.	.	.	.	.	.	.
!	!	!	!	!LO:LB:g=original	!	!	!	!	!	!	!	!	!	!	!	!	!	!	!	!	!	!	!	!	!	!	!
=17	=17	=17	=17	=17	=17	=17	=17	=17	=17	=17	=17	=17	=17	=17	=17	=17	=17	=17	=17	=17	=17	=17	=17	=17	=17	=17	=17
2E-\	.	(8e-\L	.	(8G/L	.	(8b-/L	.	1.E-	Spi-	.	1.B-	Spi-	.	1.g	Spi-	.	1.ee-	Spi-	.	2e-\	.	2g\	.	1.ee-	.	1.gg	.
.	.	8g\	.	8B-/	.	8g/)	.	.	.	.	.	.	.	.	.	.	.	.	.	.	.	.	.	.	.	.	.
.	.	8e-\	.	8G/	.	(8b-/	.	.	.	.	.	.	.	.	.	.	.	.	.	.	.	.	.	.	.	.	.
.	.	8g\J)	.	8B-/J)	.	8g/J)	.	.	.	.	.	.	.	.	.	.	.	.	.	.	.	.	.	.	.	.	.
2E-\	.	(8e-\L	.	(8G/L	.	8r	.	.	.	.	.	.	.	.	.	.	.	.	.	2e-\	.	2g\	.	.	.	.	.
.	.	8g\	.	8B-/	.	8gg\L|	.	.	.	.	.	.	.	.	.	.	.	.	.	.	.	.	.	.	.	.	.
.	.	8e-\	.	8G/	.	(8gg\	.	.	.	.	.	.	.	.	.	.	.	.	.	.	.	.	.	.	.	.	.
.	.	8g\J)	.	8B-/J)	.	8ee-\J)	.	.	.	.	.	.	.	.	.	.	.	.	.	.	.	.	.	.	.	.	.
4r	.	(8e-\L	.	(8G/L	.	(8ee-\L	.	.	.	.	.	.	.	.	.	.	.	.	.	4e-\	.	4g\	.	.	.	.	.
.	.	8g\	.	8B-/	.	8b-\	.	.	.	.	.	.	.	.	.	.	.	.	.	.	.	.	.	.	.	.	.
4E-\	p	8e-\	.	8G/	.	8b-\)	.	.	.	.	.	.	.	.	.	.	.	.	.	4e-\	.	4g\	.	.	.	.	.
.	.	8g\J)	.	8B-/J)	.	8g\J	.	.	.	.	.	.	.	.	.	.	.	.	.	.	.	.	.	.	.	.	.
!	!	!	!	!	!	!	!	!	!	!	!	!	!	!	!	!	!LO:LB:g=original	!	!	!	!	!	!	!	!	!	!
=18	=18	=18	=18	=18	=18	=18	=18	=18	=18	=18	=18	=18	=18	=18	=18	=18	=18	=18	=18	=18	=18	=18	=18	=18	=18	=18	=18
!	!	!	!	!	!	!	!LO:DY:a:t=p&colon;	!	!	!LO:DY:a:t=p&colon;	!	!	!LO:DY:a	!	!	!	!	!	!LO:DY:a:t=p&colon;	!	!	!	!	!	!	!	!
2B-\	.	(8d\L	p	(8A-/L	.	(8a-/L	p	1.BB-	-ri-	p	1.A-	-ri-	p	1.f	.	.	1.dd	.	p	2B-/	p	2f\	p	1.ff	p	1.aa-	p
.	.	8f\	.	8B-/	.	8f/)	.	.	.	.	.	.	.	.	.	.	.	.	.	.	.	.	.	.	.	.	.
.	.	8d\	.	8A-/	.	(8a-/	.	.	.	.	.	.	.	.	.	.	.	.	.	.	.	.	.	.	.	.	.
.	.	8f\J)	.	8B-/J)	.	8f/J)	.	.	.	.	.	.	.	.	.	.	.	.	.	.	.	.	.	.	.	.	.
2BB-/	.	(8d\L	.	(8A-/L	.	8r	.	.	.	.	.	.	.	.	.	.	.	.	.	2B-/	.	2f\	.	.	.	.	.
.	.	8f\	.	8B-/	.	8ff\L|	.	.	.	.	.	.	.	.	.	.	.	.	.	.	.	.	.	.	.	.	.
.	.	8d\	.	8A-/	.	(8ff\	.	.	.	.	.	.	.	.	.	.	.	.	.	.	.	.	.	.	.	.	.
.	.	8f\J)	.	8B-/J)	.	8dd\J)	.	.	.	.	.	.	.	.	.	.	.	.	.	.	.	.	.	.	.	.	.
!LO:LB:g=original	!	!	!	!	!	!	!	!	!	!	!	!	!	!	!	!	!	!	!	!	!	!	!	!	!	!	!
4r	.	(8d\L	.	(8A-/L	.	(8dd\L	.	.	.	.	.	.	.	.	.	.	.	.	.	4B-/	.	4f\	.	.	.	.	.
.	.	8f\	.	8B-/	.	8b-\)	.	.	.	.	.	.	.	.	.	.	.	.	.	.	.	.	.	.	.	.	.
4BB-/	.	8d\	.	8A-/	.	(8b-\	.	.	.	.	.	.	.	.	.	.	.	.	.	4B-/	.	4f\	.	.	.	.	.
.	.	8f\J)	.	8B-/J)	.	8a-\J)	.	.	.	.	.	.	.	.	.	.	.	.	.	.	.	.	.	.	.	.	.
!	!	!LO:LB:g=original	!	!	!	!	!	!	!	!	!	!	!	!	!	!	!	!	!	!LO:LB:g=original	!	!LO:LB:g=original	!	!	!	!	!
=19	=19	=19	=19	=19	=19	=19	=19	=19	=19	=19	=19	=19	=19	=19	=19	=19	=19	=19	=19	=19	=19	=19	=19	=19	=19	=19	=19
2E-\	.	(8e-\L	.	(8G/L	.	(8b-/L	.	1E-	.	.	1B-	-tu-	.	1g	-ri-	.	1ee-	-ri-	.	2e-\	.	2g\	.	1.ee-	.	1.gg	.
.	.	8g\	.	8B-/)	.	8g/)	.	.	.	.	.	.	.	.	.	.	.	.	.	.	.	.	.	.	.	.	.
.	.	8e-\	.	(8G/	.	(8b-/	.	.	.	.	.	.	.	.	.	.	.	.	.	.	.	.	.	.	.	.	.
.	.	8g\J)	.	8B-/J)	.	8g/J)	.	.	.	.	.	.	.	.	.	.	.	.	.	.	.	.	.	.	.	.	.
2E-\	.	(8e-\L	.	(8G/L	.	8r	.	.	.	.	.	.	.	.	.	.	.	.	.	2e-\	.	2g\	.	.	.	.	.
.	.	8g\	.	8B-/)	.	8gg\L|	.	.	.	.	.	.	.	.	.	.	.	.	.	.	.	.	.	.	.	.	.
.	.	8e-\	.	(8G/	.	(8gg\	.	.	.	.	.	.	.	.	.	.	.	.	.	.	.	.	.	.	.	.	.
.	.	8g\J)	.	8B-/J)	.	8ee-\J)	.	.	.	.	.	.	.	.	.	.	.	.	.	.	.	.	.	.	.	.	.
4r	.	(8e-\L	.	(8G/L	.	(8ee-\L	.	2E-\	-tu-	.	2B-\	-i	.	2g\	-tu-	.	2ee-\	-tu-	.	4e-\	.	4g\	.	.	.	.	.
.	.	8g\	.	8B-/)	.	8b-\	.	.	.	.	.	.	.	.	.	.	.	.	.	.	.	.	.	.	.	.	.
4E-\	.	8e-\	.	(8G/	.	8b-\	.	.	.	.	.	.	.	.	.	.	.	.	.	4e-\	.	4g\	.	.	.	.	.
.	.	8g\J)	.	8B-/J)	.	8g\J)	.	.	.	.	.	.	.	.	.	.	.	.	.	.	.	.	.	.	.	.	.
!	!	!	!	!	!	!	!	!	!	!	!LO:LB:g=original	!	!	!	!	!	!	!	!	!	!	!	!	!	!	!	!
=20	=20	=20	=20	=20	=20	=20	=20	=20	=20	=20	=20	=20	=20	=20	=20	=20	=20	=20	=20	=20	=20	=20	=20	=20	=20	=20	=20
2A-\	f	4c\	.	(8e-/L	.	(8cc\L	.	2A-\	-i	.	2c\	San-	.	2a-\	-i	.	2ee-\	-i	.	2e-\	.	2a-\	.	2cc\	.	2aa-\	.
.	.	.	.	8a-X/)	.	8a-\)	.	.	.	.	.	.	.	.	.	.	.	.	.	.	.	.	.	.	.	.	.
.	.	4c\	.	(8e-/	.	(8cc\	.	.	.	.	.	.	.	.	.	.	.	.	.	.	.	.	.	.	.	.	.
.	.	.	.	8a-/J)	.	8a-\J)	.	.	.	.	.	.	.	.	.	.	.	.	.	.	.	.	.	.	.	.	.
2AA-/	.	8r	.	(8e-/L	.	8r	.	2r	.	.	2r	.	.	2r	.	.	2r	.	.	2r	.	2r	.	2r	.	2r	.
.	.	(8c/L	.	8a-/)	.	8cc\L|	.	.	.	.	.	.	.	.	.	.	.	.	.	.	.	.	.	.	.	.	.
.	.	8Bn/	.	(8e-/	.	(8bn\	.	.	.	.	.	.	.	.	.	.	.	.	.	.	.	.	.	.	.	.	.
.	.	8c/J)	.	8a-/J)	.	8cc\J)	.	.	.	.	.	.	.	.	.	.	.	.	.	.	.	.	.	.	.	.	.
4r	.	8d-X/L	.	(8e-/L	.	8dd-X\L|	.	2A-\	San-	.	2c\	.	.	2a-\	San-	.	2ee-\	San-	.	2e-\	.	2a-\	.	4cc\	.	4aa-\	.
!	!	!LO:SIC:v:s=8c/	!	!	!	!	!	!	!	!	!	!	!	!	!	!	!	!	!	!	!	!	!	!	!	!	!
.	.	8B/	.	8a-/)	.	(8cc\	.	.	.	.	.	.	.	.	.	.	.	.	.	.	.	.	.	.	.	.	.
!	!	!LO:SIC:v:s=8Bn/	!	!	!	!	!	!	!	!	!	!	!	!	!	!	!	!	!	!	!	!	!	!	!	!	!
4A-\	.	8An/	.	(8e-/	.	8b\	.	.	.	.	.	.	.	.	.	.	.	.	.	.	.	.	.	4cc\	.	4aa-\	.
!	!	!LO:SIC:v:s=8c/J	!	!	!	!	!	!	!	!	!	!	!	!	!	!	!	!	!	!	!	!	!	!	!	!	!
.	.	8B/J	.	8a-/J)	.	8cc\J)	.	.	.	.	.	.	.	.	.	.	.	.	.	.	.	.	.	.	.	.	.
=21	=21	=21	=21	=21	=21	=21	=21	=21	=21	=21	=21	=21	=21	=21	=21	=21	=21	=21	=21	=21	=21	=21	=21	=21	=21	=21	=21
2A-\	.	(8d\L	.	(8f/L	.	(8ddn\L	.	2A-\	-cto	.	2d\	-cto	.	2a-\	-cto	.	2ff\	-cto	.	2f\	.	2a-\	.	2dd\	.	2aa-\	.
.	.	8B-X\)	.	8a-/)	.	8b-\)	.	.	.	.	.	.	.	.	.	.	.	.	.	.	.	.	.	.	.	.	.
.	.	(8d\	.	(8f/	.	(8dd\	.	.	.	.	.	.	.	.	.	.	.	.	.	.	.	.	.	.	.	.	.
.	.	8B-\J)	.	8a-/J)	.	8b-\J)	.	.	.	.	.	.	.	.	.	.	.	.	.	.	.	.	.	.	.	.	.
2A-\	.	8r	.	(8f/L	.	8r	.	2r	.	.	2r	.	.	2r	.	.	2r	.	.	2r	.	2r	.	2r	.	2r	.
.	.	8d\L|	.	8a-/)	.	8dd\L|	.	.	.	.	.	.	.	.	.	.	.	.	.	.	.	.	.	.	.	.	.
.	.	(8c\	.	(8f/	.	(8cc\	.	.	.	.	.	.	.	.	.	.	.	.	.	.	.	.	.	.	.	.	.
.	.	8d\J)	.	8a-/J)	.	8dd\J)	.	.	.	.	.	.	.	.	.	.	.	.	.	.	.	.	.	.	.	.	.
*	*	*	*	*	*	*	*	*	*ij	*	*	*	*	*	*ij	*	*	*ij	*	*	*	*	*	*	*	*	*
!	!	!	!	!	!	!LO:LB:g=original	!	!	!	!	!	!	!	!	!	!	!	!	!	!	!	!	!	!	!	!	!
4r	.	(8e-\L	.	(8f/L	.	8ee-\L|	.	2A-\	San-	.	2d\	San-	.	2a-\	San-	.	2ff\	San-	.	2f\	.	2a-\	.	4dd\	.	4aa-\	.
.	.	8d\)	.	8a-/)	.	(8dd\	.	.	.	.	.	.	.	.	.	.	.	.	.	.	.	.	.	.	.	.	.
4A-\	.	(8c\	.	(8f/	.	8cc\	.	.	.	.	.	.	.	.	.	.	.	.	.	.	.	.	.	4dd\	.	4aa-\	.
.	.	8d\J)	.	8a-/J)	.	8dd\J)	.	.	.	.	.	.	.	.	.	.	.	.	.	.	.	.	.	.	.	.	.
!	!	!	!	!LO:LB:g=original	!	!	!	!	!	!	!	!	!	!	!	!	!	!	!	!	!	!	!	!	!	!	!
=22	=22	=22	=22	=22	=22	=22	=22	=22	=22	=22	=22	=22	=22	=22	=22	=22	=22	=22	=22	=22	=22	=22	=22	=22	=22	=22	=22
2G\	.	(8e-\L	.	(8g/L	.	(8ee-\L	.	2G\	-cto	.	2B-\	-cto	.	2g\	-cto	.	2ee-\	-cto	.	2e-\	.	2b-\	.	2ee-\	.	2gg\	.
*	*	*	*	*	*	*	*	*	*Xij	*	*	*	*	*	*Xij	*	*	*Xij	*	*	*	*	*	*	*	*	*
.	.	8B-\)	.	8e-/)	.	8b-\)	.	.	.	.	.	.	.	.	.	.	.	.	.	.	.	.	.	.	.	.	.
.	.	(8e-\	.	(8g/	.	(8ee-\	.	.	.	.	.	.	.	.	.	.	.	.	.	.	.	.	.	.	.	.	.
.	.	8B-\J)	.	8e-/J)	.	8b-\J)	.	.	.	.	.	.	.	.	.	.	.	.	.	.	.	.	.	.	.	.	.
2r	.	(8B-/L	.	(8e-/L	.	(8b-\L	.	2r	.	.	2r	.	.	2r	.	.	2r	.	.	2r	.	2r	.	2r	.	2r	.
.	.	8G/)	.	8B-/)	.	8g\	.	.	.	.	.	.	.	.	.	.	.	.	.	.	.	.	.	.	.	.	.
.	.	(8B-/	.	(8e-/	.	8b-\	.	.	.	.	.	.	.	.	.	.	.	.	.	.	.	.	.	.	.	.	.
.	.	8G/J)	.	8B-/J)	.	8g\J)	.	.	.	.	.	.	.	.	.	.	.	.	.	.	.	.	.	.	.	.	.
4r	.	(8F/L	.	(8B-/L	.	(8g/L	.	2r	.	.	2r	.	.	2r	.	.	2r	.	.	2r	.	2r	.	2r	.	2r	.
.	.	8E-/)	.	8G/)	.	8e-/	.	.	.	.	.	.	.	.	.	.	.	.	.	.	.	.	.	.	.	.	.
4G\	.	(8G/	.	(8B-/	.	8g/	.	.	.	.	.	.	.	.	.	.	.	.	.	.	.	.	.	.	.	.	.
.	.	8E-/J)	.	8G/J)	.	8e-/J)	.	.	.	.	.	.	.	.	.	.	.	.	.	.	.	.	.	.	.	.	.
=23	=23	=23	=23	=23	=23	=23	=23	=23	=23	=23	=23	=23	=23	=23	=23	=23	=23	=23	=23	=23	=23	=23	=23	=23	=23	=23	=23
!	!	!	!	!	!	!	!	!	!	!	!	!	!	!LO:SIC:v:s=4c\	!	!	!	!	!	!	!	!	!	!	!	!	!
4A-\	.	4A-/	.	8A-/L	.	8cc\L	.	2A-\	San-	.	2c\	San-	.	4d\	tu-	.	(4cc\	San-	.	4r	.	4r	.	4r	.	4r	.
.	.	.	.	8c/	.	8a-\	.	.	.	.	.	.	.	.	.	.	.	.	.	.	.	.	.	.	.	.	.
!	!	!	!	!	!	!	!	!	!	!	!	!	!	!LO:SIC:v:s=4c\	!	!	!	!	!	!	!	!	!	!	!	!	!
4F\	.	4c/	.	8B-/	.	8g\	.	.	.	.	.	.	.	4d\	-i	.	4ff\)	.	.	4f\	.	4a-\	.	4ff\	.	4aa-\	.
.	.	.	.	8A-/J	.	8f\J	.	.	.	.	.	.	.	.	.	.	.	.	.	.	.	.	.	.	.	.	.
!	!	!	!	!	!	!	!	!	!	!	!	!	!	!LO:SIC:v:s=2B-/	!	!	!	!	!	!	!	!	!	!	!	!	!
2B-\	.	2B-/	.	2G/	.	2e-/	.	2B-\	.	.	1B-	.	.	2c\	San-	.	(2ee-\	.	.	2e-\	.	2g\	.	2ee-\	.	2gg\	.
!	!	!	!	!	!	!	!	!	!	!	!	!	!	!LO:SIC:v:s=2A-/	!	!	!	!	!	!	!	!	!	!	!	!	!
2BB-/	.	2f\	.	2A-/	.	2d/	.	2BB-/	.	.	.	.	.	2B-/	.	.	2dd\)	.	.	2B-/	.	2f\	.	2b-\	.	2ff\	.
=24	=24	=24	=24	=24	=24	=24	=24	=24	=24	=24	=24	=24	=24	=24	=24	=24	=24	=24	=24	=24	=24	=24	=24	=24	=24	=24	=24
!	!	!	!	!	!	!	!	!	!	!	!	!	!	!LO:SIC:v:s=2B-/	!	!	!	!	!	!	!	!	!	!	!	!	!
2E-\	.	4e-\|	.	2G/	.	4e-/|	.	2E-\	-cto	.	2B-\	-cto	.	2c/	-cto	.	2ee-\	-cto	.	2G/	.	2e-\	.	2g/	.	2ee-\	.
.	.	(4e-\	.	.	.	4g/	.	.	.	.	.	.	.	.	.	.	.	.	.	.	.	.	.	.	.	.	.
!	!	!	!	!	!	!	!	!	!	!	!	!	!	!	!	!	!	!	!	!	!	!	!	!	!	!LO:LB:g=original	!
(4D\	.	4d\	.	(4A-/	.	(<4a-/	.	2r	.	.	2r	.	.	2r	.	.	2r	.	.	2r	.	2r	.	2r	.	2r	.
4D-X\	.	4d-X\	.	4B-/	.	4b-\)	.	.	.	.	.	.	.	.	.	.	.	.	.	.	.	.	.	.	.	.	.
4C\	.	4c\	.	4c/	.	(4cc\	.	2r	.	.	2r	.	.	2r	.	.	2r	.	.	2r	.	2r	.	2r	.	2r	.
4BB-\)	.	4B-\)	.	4d-X/)	.	4dd-X\)	.	.	.	.	.	.	.	.	.	.	.	.	.	.	.	.	.	.	.	.	.
!	!	!LO:LB:g=original	!	!	!	!	!	!	!	!	!	!	!	!LO:LB:g=original	!	!	!	!	!	!	!	!	!	!	!	!	!
=25	=25	=25	=25	=25	=25	=25	=25	=25	=25	=25	=25	=25	=25	=25	=25	=25	=25	=25	=25	=25	=25	=25	=25	=25	=25	=25	=25
!	!	!	!	!	!	!	!LO:HP:a:t=cresc&colon;	!	!	!	!	!	!	!	!	!	!	!	!	!	!	!	!	!	!	!	!
!	!	!LO:TX:a:t=4	!	!LO:TX:a:t=2	!	!	!LO:DY:t=p&colon;	!LO:TX:a:t=6	!	!	!LO:TX:a:t=4	!	!	!	!	!	!	!	!LO:DY:a:t=p&colon;	!LO:TX:a:t=8	!	!LO:TX:a:t=6	!	!LO:TX:b:t=8	!	!LO:TX:a:t=6	!
4r	.	00.r	.	0.r	.	1.ee-	p <	00.r	.	.	00.r	.	.	0.r	.	.	1.ee-	Glo-	p	00.r	.	00.r	.	00.r	.	00.r	.
!	!	!	!	!	!	!	!	!	!	!	!	!	!	!	!	!	!	!	!LO:HP:t=cres&colon;	!	!	!	!	!	!	!	!
(4AA-X/	p	.	.	.	.	.	.	.	.	.	.	.	.	.	.	.	.	.	<	.	.	.	.	.	.	.	.
4C/	.	.	.	.	.	.	.	.	.	.	.	.	.	.	.	.	.	.	.	.	.	.	.	.	.	.	.
4E-\	.	.	.	.	.	.	.	.	.	.	.	.	.	.	.	.	.	.	.	.	.	.	.	.	.	.	.
4A-\	.	.	.	.	.	.	.	.	.	.	.	.	.	.	.	.	.	.	.	.	.	.	.	.	.	.	.
4c\)	.	.	.	.	.	.	.	.	.	.	.	.	.	.	.	.	.	.	.	.	.	.	.	.	.	.	.
=26	=26	=26	=26	=26	=26	=26	=26	=26	=26	=26	=26	=26	=26	=26	=26	=26	=26	=26	=26	=26	=26	=26	=26	=26	=26	=26	=26
4r	.	.	.	.	.	1.dd-X	.	.	.	.	.	.	.	.	.	.	1.dd-X	.	.	.	.	.	.	.	.	.	.
(4GG/	.	.	.	.	.	.	.	.	.	.	.	.	.	.	.	.	.	.	.	.	.	.	.	.	.	.	.
4BB-/	.	.	.	.	.	.	.	.	.	.	.	.	.	.	.	.	.	.	.	.	.	.	.	.	.	.	.
4E-\	.	.	.	.	.	.	.	.	.	.	.	.	.	.	.	.	.	.	.	.	.	.	.	.	.	.	.
4G\	.	.	.	.	.	.	.	.	.	.	.	.	.	.	.	.	.	.	.	.	.	.	.	.	.	.	.
4B-\)	.	.	.	.	.	.	.	.	.	.	.	.	.	.	.	.	.	.	.	.	.	.	.	.	.	.	.
!LO:LB:g=original	!	!	!	!	!	!	!	!	!	!	!	!	!	!	!	!	!	!	!	!	!	!	!	!	!	!	!
=27	=27	=27	=27	=27	=27	=27	=27	=27	=27	=27	=27	=27	=27	=27	=27	=27	=27	=27	=27	=27	=27	=27	=27	=27	=27	=27	=27
!	!	!	!	!	!LO:HP:t=cresce&colon;	!	!	!	!	!	!	!	!	!	!	!	!	!	!	!	!	!	!	!	!	!	!
!	!	!	!	!	!LO:DY:a:t=p&colon;	!	!	!	!	!	!	!	!	!	!	!	!	!	!	!	!	!	!	!	!	!	!
4r	.	.	.	1.ee-	p <	1.cc	.	.	.	.	.	.	.	1.ee-	glo-	.	1.cc	-ri-	.	.	.	.	.	.	.	.	.
(4EE-/	.	.	.	.	.	.	.	.	.	.	.	.	.	.	.	.	.	.	.	.	.	.	.	.	.	.	.
4AA-/	.	.	.	.	.	.	.	.	.	.	.	.	.	.	.	.	.	.	.	.	.	.	.	.	.	.	.
4C/	.	.	.	.	.	.	.	.	.	.	.	.	.	.	.	.	.	.	.	.	.	.	.	.	.	.	.
4E-\	.	.	.	.	.	.	.	.	.	.	.	.	.	.	.	.	.	.	.	.	.	.	.	.	.	.	.
4A-\)	.	.	.	.	.	.	.	.	.	.	.	.	.	.	.	.	.	.	.	.	.	.	.	.	.	.	.
!	!	!	!	!	!	!	!	!	!	!	!	!	!	!	!	!	!LO:LB:g=original	!	!	!	!	!	!	!	!	!	!
=28	=28	=28	=28	=28	=28	=28	=28	=28	=28	=28	=28	=28	=28	=28	=28	=28	=28	=28	=28	=28	=28	=28	=28	=28	=28	=28	=28
!	!	!	!	!	!	!	!	!	!	!	!	!	!	!	!	!LO:HP:b:t=cres	!	!	!	!	!	!	!	!	!	!	!
4r	.	.	.	1.dd-X	.	1.b-	.	.	.	.	.	.	.	1.dd-X	.	<	1.b-	-a	.	.	.	.	.	.	.	.	.
(4EE-/	.	.	.	.	.	.	.	.	.	.	.	.	.	.	.	.	.	.	.	.	.	.	.	.	.	.	.
4GG/	.	.	.	.	.	.	.	.	.	.	.	.	.	.	.	.	.	.	.	.	.	.	.	.	.	.	.
4BB-/	.	.	.	.	.	.	.	.	.	.	.	.	.	.	.	.	.	.	.	.	.	.	.	.	.	.	.
4E-\	.	.	.	.	.	.	.	.	.	.	.	.	.	.	.	.	.	.	.	.	.	.	.	.	.	.	.
4G\)	.	.	.	.	.	.	.	.	.	.	.	.	.	.	.	.	.	.	.	.	.	.	.	.	.	.	.
=29	=29	=29	=29	=29	=29	=29	=29	=29	=29	=29	=29	=29	=29	=29	=29	=29	=29	=29	=29	=29	=29	=29	=29	=29	=29	=29	=29
!	!	!	!	!	!	!	!	!	!	!	!	!	!LO:HP:a:t=Cres	!	!	!	!	!	!	!	!	!	!	!	!	!	!
4r	.	1.e-	.	1.cc	.	1.a-	.	0.r	.	.	1.e-	Glo-	<	1.cc	-ri-	.	1.a-	Pa-	.	00.r	.	0.r	.	00.r	.	0.r	.
(4AA-/	.	.	.	.	.	.	.	.	.	.	.	.	.	.	.	.	.	.	.	.	.	.	.	.	.	.	.
4C/	.	.	.	.	.	.	.	.	.	.	.	.	.	.	.	.	.	.	.	.	.	.	.	.	.	.	.
4E-\	.	.	.	.	.	.	.	.	.	.	.	.	.	.	.	.	.	.	.	.	.	.	.	.	.	.	.
4A-\	.	.	.	.	.	.	.	.	.	.	.	.	.	.	.	.	.	.	.	.	.	.	.	.	.	.	.
4c\)	.	.	.	.	.	.	.	.	.	.	.	.	.	.	.	.	.	.	.	.	.	.	.	.	.	.	.
=30	=30	=30	=30	=30	=30	=30	=30	=30	=30	=30	=30	=30	=30	=30	=30	=30	=30	=30	=30	=30	=30	=30	=30	=30	=30	=30	=30
4r	.	1.d-X	.	1.b-	.	1.g	.	.	.	.	1.d-X	.	.	1.b-	-a	.	1.g	-tri	.	.	.	.	.	.	.	.	.
(4GG/	.	.	.	.	.	.	.	.	.	.	.	.	.	.	.	.	.	.	.	.	.	.	.	.	.	.	.
!LO:SIC:v:s=4BB-/	!	!	!	!	!	!	!	!	!	!	!	!	!	!	!	!	!	!	!	!	!	!	!	!	!	!	!
4C/	.	.	.	.	.	.	.	.	.	.	.	.	.	.	.	.	.	.	.	.	.	.	.	.	.	.	.
4E-\	.	.	.	.	.	.	.	.	.	.	.	.	.	.	.	.	.	.	.	.	.	.	.	.	.	.	.
4G\	.	.	.	.	.	.	.	.	.	.	.	.	.	.	.	.	.	.	.	.	.	.	.	.	.	.	.
4B-\)	.	.	.	.	.	.	.	.	.	.	.	.	.	.	.	.	.	.	.	.	.	.	.	.	.	.	.
=31	=31	=31	=31	=31	=31	=31	=31	=31	=31	=31	=31	=31	=31	=31	=31	=31	=31	=31	=31	=31	=31	=31	=31	=31	=31	=31	=31
4r	.	1.c	.	1.a-	.	1.ee-	.	1.E-	glo-	.	1.c	-ri-	.	1.a-	Pa-	.	1.ee-	Glo-	.	.	.	1.e-	.	.	.	1.ee-	p
(4EE-/	.	.	.	.	.	.	.	.	.	.	.	.	.	.	.	.	.	.	.	.	.	.	.	.	.	.	.
4AA-/	.	.	.	.	.	.	.	.	.	.	.	.	.	.	.	.	.	.	.	.	.	.	.	.	.	.	.
4C/	.	.	.	.	.	.	.	.	.	.	.	.	.	.	.	.	.	.	.	.	.	.	.	.	.	.	.
4E-\	.	.	.	.	.	.	.	.	.	.	.	.	.	.	.	.	.	.	.	.	.	.	.	.	.	.	.
4A-\)	.	.	.	.	.	.	.	.	.	.	.	.	.	.	.	.	.	.	.	.	.	.	.	.	.	.	.
!	!	!	!	!	!	!LO:LB:g=original	!	!	!	!	!	!	!	!	!	!	!	!	!	!	!	!	!	!	!	!	!
=32	=32	=32	=32	=32	=32	=32	=32	=32	=32	=32	=32	=32	=32	=32	=32	=32	=32	=32	=32	=32	=32	=32	=32	=32	=32	=32	=32
!LO:TX:t=P:problem:brak taktu nr 32	!	!	!	!	!	!LO:SIC:v:s=1.dd-	!	!	!	!	!	!	!	!	!	!	!LO:SIC:v:s=1.dd-	!	!	!	!	!	!	!LO:TX:a:t=vi	!	!	!LO:HP:t=cres
1.ryy	.	1.B-	.	1.g	.	1.dd	.	1.E-	.	.	1.B-	-a	.	1.g	-tri	.	1.dd	.	.	.	.	1.e-	.	.	.	1.dd-X	<
!	!	!	!	!	!	!	!	!LO:LB:g=original	!	!	!	!	!	!	!	!	!	!	!	!	!	!	!	!	!	!	!
=33	=33	=33	=33	=33	=33	=33	=33	=33	=33	=33	=33	=33	=33	=33	=33	=33	=33	=33	=33	=33	=33	=33	=33	=33	=33	=33	=33
!	!	!	!	!	!	!	!	!	!	!	!	!	!	!	!	!	!	!	!	!	!	!	!	!LO:TX:a:t=de	!	!	!
4r	.	1.A-	.	1.ee-	.	1.cc	.	1.E-	-ri-	.	1.A-	Pa-	.	1.ee-	glo-	.	1.cc	-ri-	.	1.E-	.	1.e-	.	1.ee-	.	1.cc	.
(4AA-/	.	.	.	.	.	.	.	.	.	.	.	.	.	.	.	.	.	.	.	.	.	.	.	.	.	.	.
4C/	.	.	.	.	.	.	.	.	.	.	.	.	.	.	.	.	.	.	.	.	.	.	.	.	.	.	.
4E-\	.	.	.	.	.	.	.	.	.	.	.	.	.	.	.	.	.	.	.	.	.	.	.	.	.	.	.
4A-\	.	.	.	.	.	.	.	.	.	.	.	.	.	.	.	.	.	.	.	.	.	.	.	.	.	.	.
4c\)	.	.	.	.	.	.	.	.	.	.	.	.	.	.	.	.	.	.	.	.	.	.	.	.	.	.	.
=34	=34	=34	=34	=34	=34	=34	=34	=34	=34	=34	=34	=34	=34	=34	=34	=34	=34	=34	=34	=34	=34	=34	=34	=34	=34	=34	=34
!	!	!	!	!LO:SIC:v:s=1.dd-	!	!	!	!	!	!	!	!	!	!LO:SIC:v:s=1.dd-	!	!	!	!	!	!	!	!	!	!LO:SIC:v:s=1.dd-	!	!	!
4r	.	1.G	.	1.dd	.	1.b-	.	1.E-	-a	.	1.G	-tri	.	1.dd	-ri-	.	1.b-	-a	.	1.E-	.	1.e-	.	1.dd	.	1.b-	.
(4GG/	.	.	.	.	.	.	.	.	.	.	.	.	.	.	.	.	.	.	.	.	.	.	.	.	.	.	.
4BB-/	.	.	.	.	.	.	.	.	.	.	.	.	.	.	.	.	.	.	.	.	.	.	.	.	.	.	.
4E-\	.	.	.	.	.	.	.	.	.	.	.	.	.	.	.	.	.	.	.	.	.	.	.	.	.	.	.
4G\	.	.	.	.	.	.	.	.	.	.	.	.	.	.	.	.	.	.	.	.	.	.	.	.	.	.	.
4B-\)	.	.	.	.	.	.	.	.	.	.	.	.	.	.	.	.	.	.	.	.	.	.	.	.	.	.	.
=35	=35	=35	=35	=35	=35	=35	=35	=35	=35	=35	=35	=35	=35	=35	=35	=35	=35	=35	=35	=35	=35	=35	=35	=35	=35	=35	=35
4r	.	1.e-	.	1.cc	.	1.a-	.	1.E-	Pa-	.	1.e-	E-	.	1.cc	-a	.	1a-	fi-	.	1.E-	.	1.e-	.	1.cc	.	1.ee-	.
(4EE-/	.	.	.	.	.	.	.	.	.	.	.	.	.	.	.	.	.	.	.	.	.	.	.	.	.	.	.
4AA-/	.	.	.	.	.	.	.	.	.	.	.	.	.	.	.	.	.	.	.	.	.	.	.	.	.	.	.
4C/	.	.	.	.	.	.	.	.	.	.	.	.	.	.	.	.	.	.	.	.	.	.	.	.	.	.	.
4E-\	.	.	.	.	.	.	.	.	.	.	.	.	.	.	.	.	2a-\	-li-	.	.	.	.	.	.	.	.	.
4A-\)	.	.	.	.	.	.	.	.	.	.	.	.	.	.	.	.	.	.	.	.	.	.	.	.	.	.	.
!LO:LB:g=original	!	!	!	!	!	!	!	!	!	!	!	!	!	!	!	!	!	!	!	!	!	!	!	!	!	!	!
=36	=36	=36	=36	=36	=36	=36	=36	=36	=36	=36	=36	=36	=36	=36	=36	=36	=36	=36	=36	=36	=36	=36	=36	=36	=36	=36	=36
!	!	!LO:SIC:v:s=1.d-	!	!	!	!	!	!	!	!	!LO:SIC:v:s=1.d-	!	!	!	!	!	!	!	!	!	!	!	!	!	!	!LO:SIC:v:s=1.dd-	!
4r	.	1.d	.	1.b-	.	1.g	.	1.E-	-tri	.	1.d	-t	.	1.b-	fi-	.	1.g	-o	.	1.E-	.	1.e-	.	1.b-	.	1.dd	.
(4EE-/	.	.	.	.	.	.	.	.	.	.	.	.	.	.	.	.	.	.	.	.	.	.	.	.	.	.	.
4GG/	.	.	.	.	.	.	.	.	.	.	.	.	.	.	.	.	.	.	.	.	.	.	.	.	.	.	.
!LO:SIC:v:s=4BB-/	!	!	!	!	!	!	!	!	!	!	!	!	!	!	!	!	!	!	!	!	!	!	!	!	!	!	!
4C/	.	.	.	.	.	.	.	.	.	.	.	.	.	.	.	.	.	.	.	.	.	.	.	.	.	.	.
4E-\	.	.	.	.	.	.	.	.	.	.	.	.	.	.	.	.	.	.	.	.	.	.	.	.	.	.	.
4G\)	.	.	.	.	.	.	.	.	.	.	.	.	.	.	.	.	.	.	.	.	.	.	.	.	.	.	.
!	!	!	!	!LO:LB:g=original	!	!	!	!	!	!	!	!	!	!	!	!	!	!	!	!	!	!LO:LB:g=original	!	!LO:LB:g=original	!	!	!
=37	=37	=37	=37	=37	=37	=37	=37	=37	=37	=37	=37	=37	=37	=37	=37	=37	=37	=37	=37	=37	=37	=37	=37	=37	=37	=37	=37
4r	.	1.c	.	1.a-	.	1.ee-	.	1.E-	glo-	.	1.c	fi-	.	1.a-	.	.	1.ee-	Glo-	.	1.E-	.	1.e-	.	1.ee-	.	1.cc	.
(4AA-/	.	.	.	.	.	.	.	.	.	.	.	.	.	.	.	.	.	.	.	.	.	.	.	.	.	.	.
4C/	.	.	.	.	.	.	.	.	.	.	.	.	.	.	.	.	.	.	.	.	.	.	.	.	.	.	.
4E-\	.	.	.	.	.	.	.	.	.	.	.	.	.	.	.	.	.	.	.	.	.	.	.	.	.	.	.
4A-\	.	.	.	.	.	.	.	.	.	.	.	.	.	.	.	.	.	.	.	.	.	.	.	.	.	.	.
4c\)	.	.	.	.	.	.	.	.	.	.	.	.	.	.	.	.	.	.	.	.	.	.	.	.	.	.	.
!	!	!	!	!	!	!	!	!	!	!	!LO:LB:g=original	!	!	!	!	!	!	!	!	!	!	!	!	!	!	!	!
=38	=38	=38	=38	=38	=38	=38	=38	=38	=38	=38	=38	=38	=38	=38	=38	=38	=38	=38	=38	=38	=38	=38	=38	=38	=38	=38	=38
!	!	!	!	!	!	!LO:SIC:v:s=1.dd-	!	!	!	!	!	!	!	!	!	!	!LO:SIC:v:s=1.dd-	!	!	!	!	!	!	!LO:SIC:v:s=1.dd-	!	!	!
4r	.	1.B-	.	1.g	.	1.dd	.	1.E-	-ri-	.	1.B-	-li-	.	1.g	-li-	.	1.dd	-ri-	.	1.E-	.	1.e-	.	1.dd	.	1.b-	.
4GG/	.	.	.	.	.	.	.	.	.	.	.	.	.	.	.	.	.	.	.	.	.	.	.	.	.	.	.
!LO:SIC:v:s=4BB-/	!	!	!	!	!	!	!	!	!	!	!	!	!	!	!	!	!	!	!	!	!	!	!	!	!	!	!
4C/	.	.	.	.	.	.	.	.	.	.	.	.	.	.	.	.	.	.	.	.	.	.	.	.	.	.	.
4E-\	.	.	.	.	.	.	.	.	.	.	.	.	.	.	.	.	.	.	.	.	.	.	.	.	.	.	.
4G\	.	.	.	.	.	.	.	.	.	.	.	.	.	.	.	.	.	.	.	.	.	.	.	.	.	.	.
4B-\	.	.	.	.	.	.	.	.	.	.	.	.	.	.	.	.	.	.	.	.	.	.	.	.	.	.	.
!	!	!	!	!	!	!	!	!	!	!	!	!	!	!	!	!	!	!	!	!LO:LB:g=original	!	!	!	!	!	!	!
=39	=39	=39	=39	=39	=39	=39	=39	=39	=39	=39	=39	=39	=39	=39	=39	=39	=39	=39	=39	=39	=39	=39	=39	=39	=39	=39	=39
!	!	!	!	!	!	!	!LO:DY:a:t=f&colon;	!	!	!	!	!	!	!	!	!	!	!	!	!	!	!	!	!	!	!	!
2A-\	.	2e-\	f	2a-/	.	2cc\	f	2A-\	-a	.	2e-\	-o	.	2a-\	-o	.	2cc\	-a	.	2e-\	.	2a-\	.	2cc\	.	2a-\	f
4D-X\	.	4f\	.	4f/	.	4dd-X\|	.	4r	.	.	4r	.	.	4r	.	.	4r	.	.	2r	.	2r	.	4r	.	4r	.
!	!	!	!	!	!	!	!	!LO:SIC:v:s=(4F\	!	!	!	!	!	!	!	!	!	!	!	!	!	!	!	!	!	!	!
4F\	.	4d-X\	.	4d-X/	.	(4b-\	.	(4E-\	fi-	.	(4f\	fi-	.	(4d-X\	fi-	.	(4b-\	fi-	.	.	.	.	.	4dd-X\	.	4bb-\	.
!	!	!	!	!	!	!	!	!LO:SIC:v:s=4E-\)	!	!	!	!	!	!	!	!	!	!	!	!	!	!	!	!	!	!	!
4E-\	.	4e-\	.	4c/	.	4a-\	.	4F\)	.	.	4e-\)	.	.	4c\)	.	.	4a-\)	.	.	2r	.	2r	.	4cc\	.	4aa-\	.
!	!	!	!	!	!	!	!	!LO:SIC:v:s=4EE-/	!	!	!	!	!	!	!	!	!	!	!	!	!	!	!	!	!	!	!
4E-\	.	4e-\	.	4B-/	.	4g\)	.	4FF/	-li-	.	4e-\	-li-	.	4B-/	-li-	.	4g\	-li-	.	.	.	.	.	4b-\	.	4gg\	.
!	!	!	!	!	!	!	!	!	!	!	!	!	!	!	!	!	!LO:LB:g=original	!	!	!	!	!	!	!	!	!	!
=40	=40	=40	=40	=40	=40	=40	=40	=40	=40	=40	=40	=40	=40	=40	=40	=40	=40	=40	=40	=40	=40	=40	=40	=40	=40	=40	=40
!	!	!	!	!	!	!	!	!LO:SIC:v:s=2AA-/	!	!	!	!	!	!	!	!	!	!	!	!	!	!LO:TX:a:t=1	!	!	!	!	!
2A-\	.	2e-\	.	2c/	.	2a-/	.	2BB-/	-o	.	2e-\	-o	.	2c/	-o	.	2a-\	-o	.	1.r	.	1.r	.	2cc\	.	2aa-\	.
!	!	!	!	!	!	!	!	!	!	!	!	!	!	!LO:LB:g=original	!	!	!	!	!	!	!	!	!	!	!	!	!
(4G\	.	4g\	.	2r	.	2r	.	2r	.	.	2r	.	.	2r	.	.	2r	.	.	.	.	.	.	2r	.	2r	.
4F\	.	4f\	.	.	.	.	.	.	.	.	.	.	.	.	.	.	.	.	.	.	.	.	.	.	.	.	.
4E-\	.	4e-\	.	2r	.	2r	.	2r	.	.	2r	.	.	2r	.	.	2r	.	.	.	.	.	.	2r	.	2r	.
4Dn\)	.	4dn\	.	.	.	.	.	.	.	.	.	.	.	.	.	.	.	.	.	.	.	.	.	.	.	.	.
=41	=41	=41	=41	=41	=41	=41	=41	=41	=41	=41	=41	=41	=41	=41	=41	=41	=41	=41	=41	=41	=41	=41	=41	=41	=41	=41	=41
!	!	!	!	!	!	!	!	!	!	!	!	!	!	!	!	!	!	!	!	!	!	!	!	!	!	!LO:TX:t=P:problem:w taktach nr 41-44 niezgodność pionów harmonicznych	!
!	!	!	!	!	!	!	!LO:DY:a:t=f&colon;	!LO:TX:a:t=1	!	!	!LO:TX:a:t=1	!	!	!	!	!	!	!	!	!	!	!	!	!LO:TX:a:t=i	!	!LO:TX:a:t=1	!
2E-\	.	2B-/	.	2g/	.	2b-\	f	1.r	.	.	1.r	.	.	(2g\	Et	.	(2b-\	et	.	2g\	.	2b-\	.	1.r	.	1.r	.
2r	.	2r	.	2a-/	.	2cc\	.	.	.	.	.	.	.	2a-\)	.	.	2cc\)	.	.	2a-\	.	2cc\	.	.	.	.	.
2BB-/	.	2B-/	.	2f/	.	2a-\	.	.	.	.	.	.	.	2f\	Spi-	.	2a-\	Spi-	.	2f\	.	2a-\	.	.	.	.	.
=42	=42	=42	=42	=42	=42	=42	=42	=42	=42	=42	=42	=42	=42	=42	=42	=42	=42	=42	=42	=42	=42	=42	=42	=42	=42	=42	=42
2E-\	.	1B-	.	2f/	.	2a-/	.	(2G\	Et	.	2B-\	et	.	(2f\	-ri-	.	(2a-\	-ri-	.	2f\	.	2a-\	.	2gg\	.	2bb-\	.
2EE-/	.	.	.	2e-/	.	2g/	.	2A-\)	.	.	2c\	Spi-	.	2e-\)	.	.	2g\)	.	.	2e-\	.	2g\	.	2aa-\	.	2ccc\	.
2r	.	2B-/	.	2r	.	2r	.	2F\	Spi-	.	2A-\	-ri-	.	2r	.	.	2r	.	.	2r	.	2r	.	2ff\	.	2aa-\	.
!	!	!LO:LB:g=original	!	!	!	!	!	!	!	!	!	!	!	!	!	!	!	!	!	!	!	!	!	!	!	!	!
=43	=43	=43	=43	=43	=43	=43	=43	=43	=43	=43	=43	=43	=43	=43	=43	=43	=43	=43	=43	=43	=43	=43	=43	=43	=43	=43	=43
2E-\	.	2B-/	.	2g/	.	2b-\	.	2F\	-ri[tu-	.	2A-\	-tu-	.	(2g\	-tu-	.	(2b-\	-tu-	.	2g\	.	2b-\	.	2ff\	.	2aa-\	.
2r	.	2r	.	2a-/	.	2cc\	.	2E-\	-i]	.	2G\	-i	.	2a-\)	.	.	2cc\)	.	.	2a-\	.	2cc\	.	2ee-\	.	2gg\	.
2BB-/	.	2B-/	.	2f/	.	2a-/	.	2r	.	.	2r	.	.	2f\	-i	.	2a-\	-i	.	2f\	.	2a-\	.	2r	.	2r	.
!	!	!	!	!	!	!LO:LB:g=original	!	!	!	!	!	!	!	!	!	!	!	!	!	!	!	!	!	!	!	!LO:LB:g=original	!
=44	=44	=44	=44	=44	=44	=44	=44	=44	=44	=44	=44	=44	=44	=44	=44	=44	=44	=44	=44	=44	=44	=44	=44	=44	=44	=44	=44
2E-\	.	1B-	.	2f/	.	2a-/	.	2G\	San-	.	(2B-\	San-	.	2f\	San-	.	2a-\	San-	.	2f\	.	2a-\	.	2gg\	.	2bb-\	.
2EE-/	.	.	.	2e-/	.	2g/	.	2A-\	.	.	2c\)	.	.	2e-\	-cto	.	2g\	-cto	.	2e-\	.	2g\	.	2aa-\	.	2ccc\	.
2BB-/	.	2B-/	.	2r	.	2r	.	2F\	.	.	2A-\	-cto	.	2r	.	.	2r	.	.	2r	.	2r	.	2ff\	.	2aa-\	.
!LO:LB:g=original	!	!	!	!	!	!	!	!LO:LB:g=original	!	!	!	!	!	!	!	!	!	!	!	!	!	!	!	!	!	!	!
=45	=45	=45	=45	=45	=45	=45	=45	=45	=45	=45	=45	=45	=45	=45	=45	=45	=45	=45	=45	=45	=45	=45	=45	=45	=45	=45	=45
2E-\	.	2B-/	.	(4g/	.	(4ee-\	.	2E-\	-cto	.	2G/	Spi-	.	2g\	Spi-	.	2ee-\	Spi-	.	2e-\	.	2g\	.	2ee-\	.	2gg\	.
.	.	.	.	4f/	.	4ddn\	.	.	.	.	.	.	.	.	.	.	.	.	.	.	.	.	.	.	.	.	.
2r	.	2r	.	4a-/	.	4cc\	.	2r	.	.	2r	.	.	2r	.	.	2r	.	.	2r	.	2r	.	4aa-\	.	(4ccc\	.
.	.	.	.	4g/	.	4b-\	.	.	.	.	.	.	.	.	.	.	.	.	.	.	.	.	.	4gg\	.	4bb-\	.
2E-\	.	2b-\	.	4f/	.	4a-\	.	2r	.	.	2r	.	.	2r	.	.	2r	.	.	2r	.	2r	.	4ff\	.	4aa-\	.
.	.	.	.	4e-/)	.	4g\)	.	.	.	.	.	.	.	.	.	.	.	.	.	.	.	.	.	4ee-\	.	4gg\)	.
=46	=46	=46	=46	=46	=46	=46	=46	=46	=46	=46	=46	=46	=46	=46	=46	=46	=46	=46	=46	=46	=46	=46	=46	=46	=46	=46	=46
4A-\	.	4cc\	.	(8A-/L	.	8cc\L|	.	2A-\	Spi-	.	(2c\	-ri-	.	(2a-\	-ri-	.	(2ff\	-ri-	.	2r	.	2r	.	4cc\	.	4aa-\	.
.	.	.	.	8c/	.	(8a-\	.	.	.	.	.	.	.	.	.	.	.	.	.	.	.	.	.	.	.	.	.
4F\	.	4a-\	.	8B-/	.	8g\	.	.	.	.	.	.	.	.	.	.	.	.	.	.	.	.	.	4a-/	.	4ff\	.
.	.	.	.	8A-/J)	.	8f\J)	.	.	.	.	.	.	.	.	.	.	.	.	.	.	.	.	.	.	.	.	.
2B-\	.	2b-\	.	2G/	.	2e-/	.	2B-\	-ri-	.	2B-\)	.	.	2g\)	.	.	2ee-\)	.	.	2G/	.	2e-\	.	2g/	.	2ee-\	.
2BB-/	.	2b-\	.	2A-/	.	2dn/	.	2BB-/	-tu-	.	2B-\	-tu-	.	2f\	-tu-	.	2ddn\	-tu-	.	2B-/	.	2f\	.	2f/	.	2ddn\	.
=47	=47	=47	=47	=47	=47	=47	=47	=47	=47	=47	=47	=47	=47	=47	=47	=47	=47	=47	=47	=47	=47	=47	=47	=47	=47	=47	=47
2E-\	.	2b-\	.	2A-/	.	2d/	.	(<2BB-/	-i	.	1B-	-i	.	(2f\	-i	.	(2dd\	-i	.	2B-/	.	2f\	.	2f/	.	2dd\	.
2BB-/	.	2b-\	.	2G/	.	2e-/	.	2E-\)	.	.	.	.	.	2g\)	.	.	2ee-\)	.	.	2G/	.	2e-\	.	2g/	.	2ee-\	.
2EE-/	.	2r	.	2r	.	2r	.	2r	.	.	2r	.	.	2r	.	.	2r	.	.	2r	.	2r	.	2r	.	2r	.
!	!	!	!	!	!	!	!	!	!	!	!	!	!	!	!	!	!	!	!	!	!	!	!	!LO:LB:g=original	!	!	!
=48	=48	=48	=48	=48	=48	=48	=48	=48	=48	=48	=48	=48	=48	=48	=48	=48	=48	=48	=48	=48	=48	=48	=48	=48	=48	=48	=48
*	*	*	*	*^	*	*^	*	*	*	*	*	*	*	*	*	*	*	*	*	*	*	*	*	*	*	*	*
*	*	*	*	*	*cue	*	*	*cue	*	*	*	*	*	*	*	*	*	*	*	*	*	*	*	*	*	*	*	*	*
!	!	!	!	!LO:TX:a:t=i	!LO:TX:b:i:t=Corni Solo	!	!LO:TX:a:t=i	!LO:TX:b:i:t=Corni Solo	!	!LO:TX:a:t=1	!	!	!	!	!	!	!	!	!LO:TX:a:t=1	!	!	!LO:TX:a:i:t=Solo	!	!LO:TX:a:i:t=Solo	!	!LO:TX:a:t=1	!	!	!
2BB-/	.	2b-\	pp	1.ree	8d/L	.	1.ree	8f\L	.	1.r	.	.	1.r	.	.	1.r	.	.	1.r	.	.	8B-\L	.	8f\L	.	1.r	.	1.r	.
.	.	.	.	.	8e-/	.	.	8g\	.	.	.	.	.	.	.	.	.	.	.	.	.	8e-\	.	8g\	.	.	.	.	.
.	.	.	.	.	8d/	.	.	8f\	.	.	.	.	.	.	.	.	.	.	.	.	.	8B-\	.	8f\	.	.	.	.	.
.	.	.	.	.	8e-/J	.	.	8g\J	.	.	.	.	.	.	.	.	.	.	.	.	.	8e-\J	.	8g\J	.	.	.	.	.
2r	.	2r	.	.	4f/	.	.	4a-\	.	.	.	.	.	.	.	.	.	.	.	.	.	4f\	.	4a-\	.	.	.	.	.
.	.	.	.	.	4d/	.	.	4f\	.	.	.	.	.	.	.	.	.	.	.	.	.	4B-/	.	4f\	.	.	.	.	.
!	!	!	!	!	!	!	!	!	!	!	!	!	!	!	!	!	!	!	!	!	!	!	!	!LO:LB:g=original	!	!	!	!	!
2BB-/	.	2b-\	.	.	2d/	.	.	2f\	.	.	.	.	.	.	.	.	.	.	.	.	.	2B-/	.	2f\	.	.	.	.	.
*	*	*	*	*	*Xcue	*	*	*Xcue	*	*	*	*	*	*	*	*	*	*	*	*	*	*	*	*	*	*	*	*	*
*	*	*	*	*v	*v	*	*	*	*	*	*	*	*	*	*	*	*	*	*	*	*	*	*	*	*	*	*	*	*
*	*	*	*	*	*	*v	*v	*	*	*	*	*	*	*	*	*	*	*	*	*	*	*	*	*	*	*	*	*
!	!	!	!	!LO:LB:g=original	!	!	!	!	!	!	!	!	!	!LO:LB:g=original	!	!	!LO:LB:g=original	!	!	!	!	!	!	!	!	!	!
=49	=49	=49	=49	=49	=49	=49	=49	=49	=49	=49	=49	=49	=49	=49	=49	=49	=49	=49	=49	=49	=49	=49	=49	=49	=49	=49	=49
!	!	!	!	!	!	!	!LO:DY:a	!	!	!	!	!	!	!	!	!	!	!	!	!	!	!	!	!	!	!	!
4BB-/	f	4b-\	f	4r	.	4r	f	2A-\	San-	.	1B-	San-	.	(2f\	San-	.	(2a-\	San-	.	2f\	.	2a-\	.	2ff\	.	2aa-\	.
4B-\	.	4b-\	.	4f/	.	4a-/	.	.	.	.	.	.	.	.	.	.	.	.	.	.	.	.	.	.	.	.	.
4BB-/	.	4b-\	.	4r	.	4r	.	2B-\	.	.	.	.	.	2e-\)	.	.	2g\)	.	.	2e-\	.	2g\	.	2ee-\	.	2gg\	.
4B-\	.	4b-\	.	4e-/	.	4g/	.	.	.	.	.	.	.	.	.	.	.	.	.	.	.	.	.	.	.	.	.
!	!	!	!	!	!	!	!	!	!	!	!	!	!	!	!	!	!	!	!	!LO:LB:g=original	!	!	!	!	!	!	!
4BB-/	.	4b-\	.	4r	.	4r	.	2BB-/	-cto	.	2B-\	-cto	.	2d\	-cto	.	2f/	-cto	.	2B-/	.	2f\	.	2dd\	.	2ff\	.
4B-\	.	4b-\	.	4d/	.	4f/	.	.	.	.	.	.	.	.	.	.	.	.	.	.	.	.	.	.	.	.	.
=50	=50	=50	=50	=50	=50	=50	=50	=50	=50	=50	=50	=50	=50	=50	=50	=50	=50	=50	=50	=50	=50	=50	=50	=50	=50	=50	=50
*	*	*	*	*^	*	*^	*	*	*	*	*	*	*	*	*	*	*	*	*	*	*	*	*	*	*	*	*
*	*	*	*	*	*cue	*	*	*cue	*	*	*	*	*	*	*	*	*	*	*	*	*	*	*	*	*	*	*	*	*
!	!	!	!	!LO:TX:a:t=i	!LO:TX:b:i:t=Corni Solo	!	!LO:TX:a:t=1	!LO:TX:b:i:t=Corni	!	!	!	!	!	!	!	!	!	!	!	!	!	!	!	!	!	!LO:TX:a:t=1	!	!LO:TX:a:t=1	!
2BB-/	p	2b-\	p	1.ree	8e-/L	.	1.r	8g\L	.	1.r	.	.	1.r	.	.	1.r	.	.	1.r	.	.	8e-\L	.	8g\L	.	1.r	.	1.r	.
.	.	.	.	.	8f/	.	.	8a-\	.	.	.	.	.	.	.	.	.	.	.	.	.	8f\	.	8a-\	.	.	.	.	.
.	.	.	.	.	8e-/	.	.	8g\	.	.	.	.	.	.	.	.	.	.	.	.	.	8e-\	.	8g\	.	.	.	.	.
.	.	.	.	.	8f/J	.	.	8a-\J	.	.	.	.	.	.	.	.	.	.	.	.	.	8f\J	.	8a-\J	.	.	.	.	.
2r	.	2r	.	.	4g/	.	.	4b-\	.	.	.	.	.	.	.	.	.	.	.	.	.	4g\	.	4b-\	.	.	.	.	.
.	.	.	.	.	4e-/	.	.	4g\	.	.	.	.	.	.	.	.	.	.	.	.	.	4e-\	.	4g\	.	.	.	.	.
2BB-/	.	2b-\	.	.	2e-/	.	.	2g\	.	.	.	.	.	.	.	.	.	.	.	.	.	2e-\	.	2g\	.	.	.	.	.
*	*	*	*	*	*Xcue	*	*	*Xcue	*	*	*	*	*	*	*	*	*	*	*	*	*	*	*	*	*	*	*	*	*
*	*	*	*	*v	*v	*	*	*	*	*	*	*	*	*	*	*	*	*	*	*	*	*	*	*	*	*	*	*	*
*	*	*	*	*	*	*v	*v	*	*	*	*	*	*	*	*	*	*	*	*	*	*	*	*	*	*	*	*	*
!	!	!	!	!	!	!	!	!	!	!	!LO:LB:g=original	!	!	!	!	!	!	!	!	!	!	!	!	!	!	!	!
=51	=51	=51	=51	=51	=51	=51	=51	=51	=51	=51	=51	=51	=51	=51	=51	=51	=51	=51	=51	=51	=51	=51	=51	=51	=51	=51	=51
*	*	*	*	*	*	*	*	*	*ij	*	*	*	*	*	*ij	*	*	*	*	*	*	*	*	*	*	*	*
4BB-/	f	4b-\	f	4r	.	4r	.	2E-\	San-	.	1B-	San-	.	(2g\	San-	.	(2b-\	San-	.	2g\	.	2b-\	.	2gg\	.	2bb-\	.
4B-\	.	4b-\	.	4g/	.	4b-/	.	.	.	.	.	.	.	.	.	.	.	.	.	.	.	.	.	.	.	.	.
4BB-/	.	4b-\	.	4r	.	4r	.	2BB-/	.	.	.	.	.	2f\)	.	.	2a-\)	.	.	2f\	.	2a-\	.	2ff\	.	2aa-\	.
!	!	!	!	!	!	!LO:TX:a:t=a	!	!	!	!	!	!	!	!	!	!	!	!	!	!	!	!	!	!	!	!	!
4B-\	.	4b-\	.	4f/	.	4a-/	.	.	.	.	.	.	.	.	.	.	.	.	.	.	.	.	.	.	.	.	.
4BB-/	.	4b-\	.	4r	.	4r	.	2E-\	-cto	.	2B-\	-cto	.	2e-\	-cto	.	2g/	-cto	.	2e-\	.	2g\	.	2ee-\	.	2gg\	.
*	*	*	*	*	*	*	*	*	*	*	*	*	*	*	*Xij	*	*	*	*	*	*	*	*	*	*	*	*
4B-\	.	4b-\	.	4e-/	.	4g/	.	.	.	.	.	.	.	.	.	.	.	.	.	.	.	.	.	.	.	.	.
!	!	!	!	!	!	!LO:LB:g=original	!	!	!	!	!	!	!	!	!	!	!	!	!	!	!	!	!	!	!	!	!
=52	=52	=52	=52	=52	=52	=52	=52	=52	=52	=52	=52	=52	=52	=52	=52	=52	=52	=52	=52	=52	=52	=52	=52	=52	=52	=52	=52
*	*	*	*	*^	*	*^	*	*	*	*	*	*	*	*	*	*	*	*	*	*	*	*	*	*	*	*	*
*	*	*	*	*	*cue	*	*	*cue	*	*	*	*	*	*	*	*	*	*	*	*	*	*	*	*	*	*	*	*	*
!	!	!	!	!LO:TX:a:t=i	!	!	!LO:TX:a:t=i	!LO:TX:b:i:t=corni	!	!	!	!	!LO:TX:a:t=1	!	!	!	!	!	!	!	!	!	!	!	!	!LO:TX:a:t=1	!	!LO:TX:a:t=1	!
2BB-/	p	2b-\	p	1.ree	8d/L	.	1.ree	8f\L	.	1.r	.	.	1.r	.	.	1.r	.	.	1.r	.	.	8B-\L	.	8f\L	.	1.r	.	1.r	.
.	.	.	.	.	8e-/	.	.	8g\	.	.	.	.	.	.	.	.	.	.	.	.	.	8e-\	.	8g\	.	.	.	.	.
.	.	.	.	.	8d/	.	.	8f\	.	.	.	.	.	.	.	.	.	.	.	.	.	8B-\	.	8f\	.	.	.	.	.
.	.	.	.	.	8e-/J	.	.	8g\J	.	.	.	.	.	.	.	.	.	.	.	.	.	8e-\J	.	8g\J	.	.	.	.	.
2r	.	2r	.	.	4f/	.	.	4a-\	.	.	.	.	.	.	.	.	.	.	.	.	.	4f\	.	4a-\	.	.	.	.	.
.	.	.	.	.	4d/	.	.	4f\	.	.	.	.	.	.	.	.	.	.	.	.	.	4B-/	.	4f\	.	.	.	.	.
!	!	!	!	!	!	!	!	!	!	!	!	!	!	!	!	!	!	!	!	!	!	!	!	!	!	!LO:TX:b:B:t=T	!	!	!
2BB-/	.	2b-\	.	.	2d/	.	.	2f\	.	.	.	.	.	.	.	.	.	.	.	.	.	2B-/	.	2f\	.	.	.	.	.
*	*	*	*	*	*Xcue	*	*	*Xcue	*	*	*	*	*	*	*	*	*	*	*	*	*	*	*	*	*	*	*	*	*
*	*	*	*	*v	*v	*	*	*	*	*	*	*	*	*	*	*	*	*	*	*	*	*	*	*	*	*	*	*	*
*	*	*	*	*	*	*v	*v	*	*	*	*	*	*	*	*	*	*	*	*	*	*	*	*	*	*	*	*	*
!	!	!LO:LB:g=original	!	!	!	!	!	!	!	!	!	!	!	!	!	!	!	!	!	!	!	!	!	!	!	!	!
=53	=53	=53	=53	=53	=53	=53	=53	=53	=53	=53	=53	=53	=53	=53	=53	=53	=53	=53	=53	=53	=53	=53	=53	=53	=53	=53	=53
*	*	*	*	*	*	*	*	*	*	*	*	*ij	*	*	*	*	*	*	*	*	*	*	*	*	*	*	*
!	!	!	!	!	!	!	!	!	!	!	!	!	!	!	!	!	!	!	!	!	!	!	!	!LO:TX:b:B:t=T	!	!	!
4BB-/	f	4b-\	.	4r	.	4r	.	2A-\	San-	.	1.B-	San-	.	(2f\	San-	.	(2a-\	San-	.	2f\	.	2a-\	.	2ff\	p	2aa-\	.
4B-\	.	4b-\	.	4f/	.	4a-/	.	.	.	.	.	.	.	.	.	.	.	.	.	.	.	.	.	.	.	.	.
4BB-/	.	4b-\	.	4r	.	4r	.	2B-\	.	.	.	.	.	2e-\	.	.	2g\)	.	.	2e-\	.	2g\	.	2ee-\	.	2gg\	.
4B-\	.	4b-\	.	4e-/	.	4g/	.	.	.	.	.	.	.	.	.	.	.	.	.	.	.	.	.	.	.	.	.
4BB-/	.	4b-\	.	4r	.	4r	.	2BB-/	.	.	.	.	.	2d\)	.	.	2f/	.	.	2B-/	.	2f\	.	2dd\	.	2ff\	.
4B-\	.	4b-\	.	4d/	.	4f/	.	.	.	.	.	.	.	.	.	.	.	.	.	.	.	.	.	.	.	.	.
!	!	!	!	!	!	!	!	!	!	!	!	!	!	!	!	!	!	!	!	!	!	!	!	!LO:LB:g=original	!	!	!
=54	=54	=54	=54	=54	=54	=54	=54	=54	=54	=54	=54	=54	=54	=54	=54	=54	=54	=54	=54	=54	=54	=54	=54	=54	=54	=54	=54
!	!	!	!	!	!	!	!LO:DY:a:t=f&colon;	!	!	!	!	!	!	!	!	!	!	!	!	!	!	!	!	!	!	!	!
2E-\	.	2b-\	f	4e-/	.	4g/	f	2E-\	-cto	.	2B-\	-cto	.	2e-\	-cto	.	2g\	-cto	.	2e-\	.	2g\	.	4ee-\	f	4gg\	.
*	*	*	*	*	*	*	*	*	*Xij	*	*	*	*	*	*	*	*	*	*	*	*	*	*	*	*	*	*
.	.	.	.	2g/	.	2ee-\	.	.	.	.	.	.	.	.	.	.	.	.	.	.	.	.	.	2ee-\	.	2gg\	.
4E-\	.	4b-\	.	.	.	.	.	2r	.	.	2r	.	.	2r	.	.	2r	.	.	2e-\	.	2g\	.	.	.	.	.
4E-\	.	4b-\	.	2g/	.	2ee-\	.	.	.	.	.	.	.	.	.	.	.	.	.	.	.	.	.	2ee-\	.	2gg\	.
!LO:LB:g=original	!	!	!	!	!	!	!	!	!	!	!	!	!	!	!	!	!	!	!	!	!	!	!	!	!	!	!
4E-\	.	4b-\	.	.	.	.	.	2r	.	.	2r	.	.	2r	.	.	2r	.	.	2e-\	.	2g\	.	.	.	.	.
4E-\	.	4b-\	.	4g/	.	4ee-\	.	.	.	.	.	.	.	.	.	.	.	.	.	.	.	.	.	4ee-\	.	4gg\	.
!	!	!	!	!	!	!	!	!	!	!	!	!	!	!	!	!	!	!	!	!	!	!	!	!	!	!LO:LB:g=original	!
=55	=55	=55	=55	=55	=55	=55	=55	=55	=55	=55	=55	=55	=55	=55	=55	=55	=55	=55	=55	=55	=55	=55	=55	=55	=55	=55	=55
4F\	.	4cc\	.	4an/	.	4ee-\	.	2r	.	.	2r	.	.	2r	.	.	2r	.	.	2e-\	.	2aX\	.	4ee-\	.	4aan\	.
4F\	.	4cc\	.	2a/	.	2ee-\	.	.	.	.	.	.	.	.	.	.	.	.	.	.	.	.	.	2ee-\	.	2aa\	.
4F\	.	4cc\	.	.	.	.	.	(2An\	San-	.	2f\	San-	.	2an\	San-	.	2ee-\	San-	.	2e-\	.	2a\	.	.	.	.	.
4F\	.	4cc\	.	4a/	.	4ee-\	.	.	.	.	.	.	.	.	.	.	.	.	.	.	.	.	.	4ee-\	.	4aa\	.
4G\	.	4b-\	.	4.b-/	.	4.dd\	.	2B-\)	.	.	2f\	-cto	.	2b-\	-cto	.	2dd\	-cto	.	2B-/	.	2b-\	.	2dd\	.	2bb-\	.
*	*	*	*	*	*	*	*	*	*	*	*	*Xij	*	*	*	*	*	*	*	*	*	*	*	*	*	*	*
4G\	.	4b-\	.	.	.	.	.	.	.	.	.	.	.	.	.	.	.	.	.	.	.	.	.	.	.	.	.
.	.	.	.	8b-/	.	8dd\	.	.	.	.	.	.	.	.	.	.	.	.	.	.	.	.	.	.	.	.	.
!	!	!	!	!	!	!	!	!LO:LB:g=original	!	!	!	!	!	!	!	!	!	!	!	!	!	!	!	!	!	!	!
=56	=56	=56	=56	=56	=56	=56	=56	=56	=56	=56	=56	=56	=56	=56	=56	=56	=56	=56	=56	=56	=56	=56	=56	=56	=56	=56	=56
4E-\	.	4g\	.	4.e-/	.	4.cc\	.	2E-\	-cto	.	2g\	San-	.	(2e-\	San-	.	(2cc\	San-	.	2e-\	.	2g\	.	2ee-\	.	2ccc\	.
4E-\	.	4g\	.	.	.	.	.	.	.	.	.	.	.	.	.	.	.	.	.	.	.	.	.	.	.	.	.
.	.	.	.	8e-/	.	8cc\	.	.	.	.	.	.	.	.	.	.	.	.	.	.	.	.	.	.	.	.	.
4F\	.	4f\	.	4.d/	.	4.b-\	.	2F\	San-	.	1f	.	.	2d\	.	.	2b-\)	.	.	2f\	.	2f\	.	2dd\	.	2bb-\	.
4F\	.	4f\	.	.	.	.	.	.	.	.	.	.	.	.	.	.	.	.	.	.	.	.	.	.	.	.	.
.	.	.	.	8d/	.	8b-\	.	.	.	.	.	.	.	.	.	.	.	.	.	.	.	.	.	.	.	.	.
4FF/	.	4f\	.	4.c/	.	4.an/	.	2FF/	.	.	.	.	.	2c\)	.	.	2an\	.	.	2f\	.	2f\	.	2cc\	.	2aan\	.
4FF/	.	4f\	.	.	.	.	.	.	.	.	.	.	.	.	.	.	.	.	.	.	.	.	.	.	.	.	.
.	.	.	.	8c/	.	8a/	.	.	.	.	.	.	.	.	.	.	.	.	.	.	.	.	.	.	.	.	.
=57	=57	=57	=57	=57	=57	=57	=57	=57	=57	=57	=57	=57	=57	=57	=57	=57	=57	=57	=57	=57	=57	=57	=57	=57	=57	=57	=57
!	!	!	!	!	!	!	!	!	!	!	!	!	!	!	!	!	!LO:SIC:v:s=8qqan/	!	!	!	!	!	!	!	!	!	!
.	.	.	.	.	.	.	.	.	.	.	.	.	.	8qqe-/	.	.	8qqa-/	.	.	.	.	.	.	.	.	.	.
2BB-/	.	2f\	.	2d/	.	2b-\	.	2BB-/	-cto	.	2f\	-cto	.	2d\	-cto	.	2b-\	-cto	.	2B-/	.	2f\	.	2dd\	.	2bb-\	.
.	.	.	.	.	.	8qqcc/	.	.	.	.	.	.	.	.	.	.	.	.	.	.	.	.	.	.	.	.	.
2B-\	.	2f\	.	2d/	.	2b-\	.	2r	.	.	2r	.	.	2r	.	.	2r	.	.	2B-/	.	2f\	.	2dd\	.	2bb-\	.
.	.	.	.	.	.	8qqcc/	.	.	.	.	.	.	.	.	.	.	.	.	.	.	.	.	.	.	.	.	.
2F\	.	2f\	.	2d/	.	2b-\	.	2r	.	.	2r	.	.	2r	.	.	2r	.	.	2B-/	.	2f\	.	2dd\	.	2bb-\	.
!	!	!	!	!	!	!	!	!	!	!	!	!	!	!LO:LB:g=original	!	!	!	!	!	!	!	!LO:LB:g=original	!	!	!	!	!
=58	=58	=58	=58	=58	=58	=58	=58	=58	=58	=58	=58	=58	=58	=58	=58	=58	=58	=58	=58	=58	=58	=58	=58	=58	=58	=58	=58
!	!	!	!	!	!	!LO:SIC:v:s=8qqan/L	!	!	!	!	!	!	!	!	!	!	!	!	!	!	!	!	!	!	!	!	!
.	.	.	.	.	.	8qqa-/L	.	.	.	.	.	.	.	.	.	.	.	.	.	.	.	.	.	.	.	.	.
.	.	.	.	.	.	8qqcc/J	.	.	.	.	.	.	.	.	.	.	.	.	.	.	.	.	.	.	.	.	.
1BB-	.	1f	.	1d	.	1b-	.	1.r	.	.	1.r	.	.	1.r	.	.	1.r	.	.	1B-	.	1f	.	1dd	.	1bb-	.
!	!	!	!	!	!	!LO:TX:b:i:t=Volti Subito&colon;	!	!	!	!	!LO:TX:b:i:t=Sicut erat Verte:rj	!	!	!	!	!	!LO:TX:b:i:t=Volti:rj	!	!	!	!	!	!	!	!	!	!
2r	.	2r	.	2r	.	2r	.	.	.	.	.	.	.	.	.	.	.	.	.	2r	.	2r	.	2r	.	2r	.
==	==	==	==	==	==	==	==	==	==	==	==	==	==	==	==	==	==	==	==	==	==	==	==	==	==	==	==
*-	*-	*-	*-	*-	*-	*-	*-	*-	*-	*-	*-	*-	*-	*-	*-	*-	*-	*-	*-	*-	*-	*-	*-	*-	*-	*-	*-
!!!system-decoration: [(g1)][(g2)][(g3)][(g4)]<s12>
!!!RDF**kern: < = below
!!!RDF**kern: | = vertical stroke
!!!ENC: Andrzej Borzym
!!!END: 2020-11-02
!!!AIN: 1 alto 1 bass 2 cor 2 oboe 1 organ 1 soprn 1 tenor 1 viola 2 violn
!!!ENC: Andrzej Kubiczek
!!!END: 2022-04-15
